!!!!SEGMENT: pl-sa--234-a-vi-38--001_bach-johann-christian--sinfonia-ex-b-allegro.krn
!!!cenid: 17xx:1804
!!!COM: Bach, Johann Christian
!!!COM-rismID: pe2530
!!!CDT: 1735/09/05-1782/01/01
!!!CNT: German
!!!OPR: Sinfonia ex B
!!!OTL: Allegro
!!!PDT:
!!!AGN: Secular
!!!SMS-siglum: PL-SA
!!!SMS-shelfmark: 234/A VI 38
!!!SMS-shelfwork: 001 M
!!!SMS-variant:
!!!SMS-altvar:
!!!NIFC-rismSourceID: 1001035159
!!!NIFC-islandoraID:
!!!URL-pdf-islandora:
!!!URL-scan: https://bc.bdsandomierz.pl/dlibra/publication/1605/edition/1573/content @EN{Scan in the Sandomierz Diocese Digital Library} @PL{Skany w portalu Cyfrowa Biblioteka Diecezjalna w Sandomierzu}
!!!ONB-nifc: UWAGA: części Sinfonii: 1. Allegro, 2. Andante, 3. Presto. Uwaga: partia Basso niekompletna
!!!AIN: 1 cbass 2 cor 1 viola 2 violn
!!!key: B-
**kern	**dynam	**kern	**dynam	**kern	**dynam	**kern	**dynam	**kern	**kern
*group2	*	*group2	*	*group2	*	*group2	*	*group1	*group1
*part6	*part6	*part5	*part5	*part4	*part4	*part3	*part3	*part2	*part1
*staff6	*	*staff5	*	*staff4	*	*staff3	*	*staff2	*staff1
*I"Baſso	*	*I"Alto Viola	*	*I"Violino Secondo	*	*I"Violino 1mo	*	*I"Cornu 2do	*I"Cornu 1mo
*I'[Cb]	*	*I'[Vla]	*	*I'[Vl 2]	*	*I'[Vl 1]	*	*I'[Cor 2]	*I'[Cor 1]
*Icbass	*	*Iviola	*	*Ivioln	*	*Ivioln	*	*Icor	*Icor
*ICstr	*	*ICstr	*	*ICstr	*	*ICstr	*	*ICbras	*ICbras
*clefF4	*	*clefC3	*	*clefG2	*	*clefG2	*	*clefG2	*clefG2
*	*	*	*	*	*	*	*	*ITrd1c2	*ITrd1c2
*k[b-e-]	*	*k[b-e-]	*	*k[b-e-]	*	*k[b-e-]	*	*k[b-e-]	*k[b-e-]
*B-:	*	*B-:	*	*B-:	*	*B-:	*	*B-:	*B-:
*M4/4	*	*M4/4	*	*M4/4	*	*M4/4	*	*M4/4	*M4/4
*met(c)	*	*met(c)	*	*met(c)	*	*met(c)	*	*met(c)	*met(c)
*>[A,A,B,B]	*	*>[A,A,B,B]	*	*>[A,A,B,B]	*	*>[A,A,B,B]	*	*>[A,A,B,B]	*>[A,A,B,B]
=1	=1	=1	=1	=1	=1	=1	=1	=1	=1
*>A	*	*>A	*	*>A	*	*>A	*	*>A	*>A
!	!	!	!	!	!	!	!	!LO:TX:t=P:problem=brak partii głosu	!LO:TX:t=P:problem=brak partii głosu
!	!LO:DY:a	!LO:TX:a:t=Allo	!	!LO:TX:a:t=Allo	!LO:DY:a:rj	!LO:TX:a:t=Synfonia. Allo	!LO:DY:a	!	!
1BB-	f	8B-/L	.	1B- 1d 1b-	f	1B- 1d 1b-	f	1ryy	1ryy
.	.	8B-/	.	.	.	.	.	.	.
.	.	8B-/	.	.	.	.	.	.	.
.	.	8B-/J	.	.	.	.	.	.	.
*	*	*tremolo	*	*	*	*	*	*	*
.	.	8B-/L	.	.	.	.	.	.	.
.	.	8B-/	.	.	.	.	.	.	.
.	.	8B-/	.	.	.	.	.	.	.
.	.	8B-/J	.	.	.	.	.	.	.
=2	=2	=2	=2	=2	=2	=2	=2	=2	=2
!	!	!	!	!	!LO:DY:a	!	!LO:DY:a	!	!
0r	.	8B-/L	.	8B-/	p	8d/	p	1ryy	1ryy
.	.	8B-/	.	8r	.	8r	.	.	.
.	.	8B-/	.	8c/	.	8e-/	.	.	.
.	.	8B-/J	.	8r	.	8r	.	.	.
.	.	8B-/L	.	8d/	.	8f/	.	.	.
.	.	8B-/	.	8r	.	8r	.	.	.
.	.	8B-/	.	8r	.	8r	.	.	.
.	.	8B-/J	.	8d/	.	8f/	.	.	.
=3-	=3	=3	=3	=3	=3	=3	=3	=3	=3
.	.	8B-/L	.	8e-/	.	8g/	.	1ryy	1ryy
.	.	8B-/	.	8r	.	8r	.	.	.
.	.	8B-/	.	8c/	.	8a/	.	.	.
.	.	8B-/J	.	8r	.	8r	.	.	.
.	.	8B-/L	.	8d/	.	8b-/	.	.	.
.	.	8B-/	.	8r	.	8r	.	.	.
!	!	!	!	!	!	!LO:TX:t=P:problem=all\right&colon; global	!	!	!
.	.	8B-/	.	16g/KL	.	16ee-\KL	.	.	.
.	.	.	.	8.e-/J	.	8.cc\J	.	.	.
.	.	8B-/J	.	.	.	.	.	.	.
=4-	=4	=4	=4	=4	=4	=4	=4	=4	=4
1r	.	8B-/L	.	8f/	.	8dd\	.	1ryy	1ryy
.	.	8B-/	.	8r	.	8r	.	.	.
.	.	8B-/	.	16g/KL	.	16ee-\KL	.	.	.
.	.	.	.	8.e-/J	.	8.cc\J	.	.	.
.	.	8B-/J	.	.	.	.	.	.	.
!	!	!	!	!LO:TX:a:t=P:problem=repetycja połowy taktu	!	!	!	!	!
.	.	8B-/L	.	8f/yy	.	8dd\	.	.	.
.	.	8B-/	.	8ryy	.	8r	.	.	.
.	.	8B-/	.	16g/KLyy	.	16ee-\KL	.	.	.
.	.	.	.	8.e-/Jyy	.	8.cc\J	.	.	.
.	.	8B-/J	.	.	.	.	.	.	.
=5	=5	=5	=5	=5	=5	=5	=5	=5	=5
!	!	!	!	!LO:TX:a:t=P:problem=repetycja 4 taktów	!LO:DY:a	!LO:TX:a:t=P:problem=repetycja 4 taktów	!LO:DY:a	!	!
1BB-	.	8B-/L	.	1B-yy 1dyy 1b-yy	fy	1B-yy 1dyy 1b-yy	fy	1ryy	1ryy
.	.	8B-/	.	.	.	.	.	.	.
.	.	8B-/	.	.	.	.	.	.	.
.	.	8B-/J	.	.	.	.	.	.	.
.	.	8B-/L	.	.	.	.	.	.	.
.	.	8B-/	.	.	.	.	.	.	.
.	.	8B-/	.	.	.	.	.	.	.
.	.	8B-/J	.	.	.	.	.	.	.
=6	=6	=6	=6	=6	=6	=6	=6	=6	=6
!	!	!	!	!	!LO:DY:a	!	!LO:DY:a	!	!
0r	.	8B-/L	.	8B-/yy	py	8d/yy	py	1ryy	1ryy
.	.	8B-/	.	8ryy	.	8ryy	.	.	.
.	.	8B-/	.	8c/yy	.	8e-/yy	.	.	.
.	.	8B-/J	.	8ryy	.	8ryy	.	.	.
.	.	8B-/L	.	8d/yy	.	8f/yy	.	.	.
.	.	8B-/	.	8ryy	.	8ryy	.	.	.
.	.	8B-/	.	8ryy	.	8ryy	.	.	.
.	.	8B-/J	.	8d/yy	.	8f/yy	.	.	.
=7-	=7	=7	=7	=7	=7	=7	=7	=7	=7
.	.	8B-/L	.	8e-/yy	.	8g/yy	.	1ryy	1ryy
.	.	8B-/	.	8ryy	.	8ryy	.	.	.
.	.	8B-/	.	8c/yy	.	8a/yy	.	.	.
.	.	8B-/J	.	8ryy	.	8ryy	.	.	.
.	.	8B-/L	.	8d/yy	.	8b-/yy	.	.	.
.	.	8B-/	.	8ryy	.	8ryy	.	.	.
.	.	8B-/	.	16g/KLyy	.	16ee-\KLyy	.	.	.
.	.	.	.	8.e-/Jyy	.	8.cc\Jyy	.	.	.
.	.	8B-/J	.	.	.	.	.	.	.
=8-	=8	=8	=8	=8	=8	=8	=8	=8	=8
1r	.	8B-/L	.	8f/yy	.	8dd\yy	.	1ryy	1ryy
.	.	8B-/	.	8ryy	.	8ryy	.	.	.
.	.	8B-/	.	16g/KLyy	.	16ee-\KLyy	.	.	.
.	.	.	.	8.e-/Jyy	.	8.cc\Jyy	.	.	.
.	.	8B-/J	.	.	.	.	.	.	.
!	!	!	!	!LO:TX:a:t=P:problem=repetycja połowy taktu	!	!	!	!	!
.	.	8B-/L	.	8f/yy	.	8dd\yy	.	.	.
.	.	8B-/	.	8ryy	.	8ryy	.	.	.
.	.	8B-/	.	16g/KLyy	.	16ee-\KLyy	.	.	.
.	.	.	.	8.e-/Jyy	.	8.cc\Jyy	.	.	.
.	.	8B-/J	.	.	.	.	.	.	.
*	*	*Xtremolo	*	*	*	*	*	*	*
=9	=9	=9	=9	=9	=9	=9	=9	=9	=9
!	!	!	!	!LO:TX:t=P:problem=all\right&colon; global	!	!	!	!	!
!!mixed beam:problem
!	!	!	!	!LO:TX:t=P:problem=mixed beam	!	!	!	!	!
8BB-/L	.	8B-/L	.	16B-/LL	.	16ff\LL	.	1ryy	1ryy
.	.	.	.	16b-\	.	16ff\	.	.	.
8BB-/	.	8d/	.	16b-\	.	16ff\	.	.	.
.	.	.	.	16b-\JJ	.	16ff\JJ	.	.	.
*	*	*	*	*tremolo	*	*	*	*	*
*	*	*	*	*	*	*tremolo	*	*	*
8BB-/	.	8d/	.	16b-\LL	.	16ff\LL	.	.	.
.	.	.	.	16b-\	.	16ff\	.	.	.
8BB-/J	.	8d/J	.	16b-\	.	16ff\	.	.	.
.	.	.	.	16b-\JJ	.	16ff\JJ	.	.	.
*tremolo	*	*tremolo	*	*2\right	*	*2\right	*	*	*
*	*	*2\right	*	*	*	*	*	*	*
8BB-/L	.	8d\L	.	16b-\LL	.	16ff\LL	.	.	.
.	.	.	.	16b-\	.	16ff\	.	.	.
8BB-/	.	8d\	.	16b-\	.	16ff\	.	.	.
.	.	.	.	16b-\	.	16ff\	.	.	.
8BB-/	.	8d\	.	16b-\	.	16ff\	.	.	.
.	.	.	.	16b-\	.	16ff\	.	.	.
8BB-/J	.	8d\J	.	16b-\	.	16ff\	.	.	.
.	.	.	.	16b-\JJ	.	16ff\JJ	.	.	.
!	!	!LO:LB:g=original	!	!	!	!	!	!	!
=10	=10	=10	=10	=10	=10	=10	=10	=10	=10
8BB-/L	.	8e-\L	.	16b-\LL	.	16gg\LL	.	1ryy	1ryy
.	.	.	.	16b-\	.	16gg\	.	.	.
8BB-/	.	8e-\	.	16b-\	.	16gg\	.	.	.
.	.	.	.	16b-\	.	16gg\	.	.	.
8BB-/	.	8e-\	.	16b-\	.	16gg\	.	.	.
.	.	.	.	16b-\	.	16gg\	.	.	.
8BB-/J	.	8e-\J	.	16b-\	.	16gg\	.	.	.
.	.	.	.	16b-\JJ	.	16gg\JJ	.	.	.
8BB-/L	.	8c\L	.	16ee-\LL	.	16aa\LL	.	.	.
.	.	.	.	16ee-\	.	16aa\	.	.	.
8BB-/	.	8c\	.	16ee-\	.	16aa\	.	.	.
.	.	.	.	16ee-\	.	16aa\	.	.	.
8BB-/	.	8c\	.	16ee-\	.	16aa\	.	.	.
.	.	.	.	16ee-\	.	16aa\	.	.	.
8BB-/J	.	8c\J	.	16ee-\	.	16aa\	.	.	.
.	.	.	.	16ee-\JJ	.	16aa\JJ	.	.	.
=11	=11	=11	=11	=11	=11	=11	=11	=11	=11
!	!	!LO:TX:t=P:problem=all\right&colon; global	!	!	!	!	!	!	!
8BB-/L	.	8B-/L	.	16dd\LL	.	16bb-\LL	.	1ryy	1ryy
.	.	.	.	16dd\	.	16bb-\	.	.	.
8BB-/	.	8B-/J	.	16dd\	.	16bb-\	.	.	.
.	.	.	.	16dd\	.	16bb-\JJ	.	.	.
8BB-/	.	8d\L	.	16dd\	.	16ff\LL	.	.	.
.	.	.	.	16dd\	.	16ff\	.	.	.
8BB-/J	.	8d\J	.	16dd\	.	16ff\	.	.	.
.	.	.	.	16dd\JJ	.	16ff\JJ	.	.	.
8BB-/L	.	8e-\L	.	16ee-\LL	.	16gg\LL	.	.	.
.	.	.	.	16ee-\	.	16gg\	.	.	.
8BB-/	.	8e-\J	.	16ee-\	.	16gg\	.	.	.
.	.	.	.	16ee-\JJ	.	16gg\JJ	.	.	.
8BB-/	.	8c\L	.	16cc\LL	.	16aa\LL	.	.	.
.	.	.	.	16cc\	.	16aa\	.	.	.
8BB-/J	.	8c\J	.	16cc\	.	16aa\	.	.	.
.	.	.	.	16cc\JJ	.	16aa\JJ	.	.	.
!	!	!	!	!	!	!LO:LB:g=original	!	!	!
=12	=12	=12	=12	=12	=12	=12	=12	=12	=12
8BB-/L	.	8B-/L	.	16dd\LL	.	16bb-\LL	.	1ryy	1ryy
.	.	.	.	16dd\	.	16bb-\	.	.	.
8BB-/	.	8B-/J	.	16dd\	.	16bb-\	.	.	.
.	.	.	.	16dd\	.	16bb-\JJ	.	.	.
8BB-/	.	8d\L	.	16dd\	.	16ff\LL	.	.	.
.	.	.	.	16dd\	.	16ff\	.	.	.
8BB-/J	.	8d\J	.	16dd\	.	16ff\	.	.	.
.	.	.	.	16dd\JJ	.	16ff\JJ	.	.	.
8BB-/L	.	8e-\L	.	16ee-\LL	.	16gg\LL	.	.	.
.	.	.	.	16ee-\	.	16gg\	.	.	.
8BB-/	.	8e-\J	.	16ee-\	.	16gg\	.	.	.
.	.	.	.	16ee-\JJ	.	16gg\JJ	.	.	.
8BB-/	.	8c\L	.	16cc\LL	.	16aa\LL	.	.	.
.	.	.	.	16cc\	.	16aa\	.	.	.
8BB-/J	.	8c\J	.	16cc\	.	16aa\	.	.	.
.	.	.	.	16cc\JJ	.	16aa\JJ	.	.	.
*Xtremolo	*	*Xtremolo	*	*Xtremolo	*	*Xtremolo	*	*	*
!	!	!	!	!LO:LB:g=original	!	!	!	!	!
=13	=13	=13	=13	=13	=13	=13	=13	=13	=13
4BB-/	.	4B-/	.	8dd\L	.	8bb-\L	.	1ryy	1ryy
.	.	.	.	16dd\L	.	16ff\L	.	.	.
.	.	.	.	16ee-\JJ	.	16gg\JJ	.	.	.
4r	.	4r	.	8dd\L	.	8ff\L	.	.	.
.	.	.	.	8ff\J	.	8bb-\J	.	.	.
8r	.	8r	.	[<2dd\	.	2ff\	.	.	.
!LO:TX:a:t=P:problem=all\right&colon; global	!	!	!	!	!	!	!	!	!
8F\L	.	8f\L	.	.	.	.	.	.	.
8D\	.	8d\	.	.	.	.	.	.	.
8BB-\J	.	8B-\J	.	.	.	.	.	.	.
=14	=14	=14	=14	=14	=14	=14	=14	=14	=14
*2\right	*	*	*	*	*	*	*	*	*
2F\	.	1f	.	8dd\L]	.	8ff\L	.	1ryy	1ryy
.	.	.	.	8ff\	.	8bb-\	.	.	.
.	.	.	.	8dd\	.	8ff\	.	.	.
.	.	.	.	8b-\J	.	8dd\J	.	.	.
2F\	.	.	.	8a/L	.	8cc\L	.	.	.
.	.	.	.	8b-/J	.	8dd\J	.	.	.
.	.	.	.	8qqdd/	.	8qqff/	.	.	.
*	*	*	*	*	*	*Xtuplet	*	*	*
.	.	.	.	8cc\L	.	12ee-\L	.	.	.
.	.	.	.	.	.	(>12dd\	.	.	.
.	.	.	.	16b-\L	.	.	.	.	.
.	.	.	.	.	.	12cc\J)	.	.	.
.	.	.	.	16a\JJ	.	.	.	.	.
!LO:LB:g=original	!	!	!	!	!	!	!	!	!
=15-	=15-	=15	=15	=15	=15	=15	=15	=15	=15
!	!	!	!	!	!LO:DY:a	!LO:TX:a:t=|:problem	!	!	!
4BB-/	.	4f\	.	8b-\L	p	8dd\L	.	1ryy	1ryy
.	.	.	.	16dd\L	.	(>16ff\L	p	.	.
.	.	.	.	16ee-\JJ	.	16gg\JJ)	.	.	.
4r	.	4r	.	8dd\L	.	8ff\L	.	.	.
.	.	.	.	8ff\J	.	8bb-\J	.	.	.
!	!	!	!	!	!	!LO:SIC:v:s:t=[2ff\	!	!	!
8r	.	8r	.	[<2dd\	.	2ff\	.	.	.
!	!LO:DY:a	!	!	!	!	!	!	!	!
8F\L	p	8f\L	.	.	.	.	.	.	.
8D\	.	8d\	.	.	.	.	.	.	.
8BB-\J	.	8B-\J	.	.	.	.	.	.	.
=16	=16	=16	=16	=16	=16	=16	=16	=16	=16
!	!	!	!	!	!	!LO:SIC:v:s:t=8ff\L]	!	!	!
2F\	.	1f	.	8dd\L]	.	8ff\L	.	1ryy	1ryy
.	.	.	.	8ff\	.	8bb-\	.	.	.
.	.	.	.	8dd\	.	8ff\	.	.	.
.	.	.	.	8b-\J	.	8dd\J	.	.	.
2F\	.	.	.	8a\L	.	8cc\L	.	.	.
.	.	.	.	8b-\J	.	8dd\J	.	.	.
.	.	.	.	8qqdd/	.	8qqff/	.	.	.
.	.	.	.	8cc\L	.	8ee-\L	.	.	.
.	.	.	.	16b-\L	.	16dd\L	.	.	.
.	.	.	.	16a\JJ	.	16cc\JJ	.	.	.
=17	=17	=17	=17	=17	=17	=17	=17	=17	=17
!	!	!	!	!	!LO:DY:a	!	!LO:DY:a	!	!
4BB-/	.	4f\	.	8b-\L	f	8dd\L	f	1ryy	1ryy
.	.	.	.	8ff\	.	8ff\	.	.	.
4r	.	4r	.	8dd\	.	8dd\	.	.	.
.	.	.	.	8a\J	.	8a\J	.	.	.
8B-\L	.	8b-\L	.	8b-/L	.	8b-/L	.	.	.
8F\	.	8f\	.	8f/	.	8f/	.	.	.
8D\	.	8d\	.	8d/	.	8d/	.	.	.
8BB-\J	.	8B-\J	.	8B-/J	.	8B-/J	.	.	.
=18	=18	=18	=18	=18	=18	=18	=18	=18	=18
!!mixed beam:problem
!	!	!	!	!LO:TX:t=P:problem=mixed beam	!	!LO:TX:t=P:problem=mixed beam	!	!	!
4F\	.	4f\	.	8f/L	.	8f/L	.	1ryy	1ryy
.	.	.	.	8dd\	.	8ff\	.	.	.
4r	.	4r	.	8ee-\	.	8gg\	.	.	.
.	.	.	.	8cc\J	.	8aa\J	.	.	.
8B-\L	.	8b-\L	.	8dd\L	.	8bb-\L	.	.	.
8F\	.	8f\	.	8ff\	.	8ff\	.	.	.
8D\	.	8d\	.	8dd\	.	8dd\	.	.	.
8BB-\J	.	8B-\J	.	8b-\J	.	8b-\J	.	.	.
!	!	!	!	!	!	!LO:LB:g=original	!	!	!
=19	=19	=19	=19	=19	=19	=19	=19	=19	=19
*	*	*	*	*^	*	*	*	*	*
8F\L	.	8f\L	.	4a/	4f\	.	4a/ 4ff/	.	1ryy	1ryy
8F\	.	8f\	.	.	.	.	.	.	.	.
8F\	.	8f\	.	4a/	4f\	.	4a/ 4ff/	.	.	.
8F\J	.	8f\J	.	.	.	.	.	.	.	.
4F\	.	4f\	.	4a/	4f\	.	4a/ 4ff/	.	.	.
4r	.	4r	.	4r	4ryy	.	4r	.	.	.
*	*	*	*	*v	*v	*	*	*	*	*
!	!	!LO:LB:g=original	!	!	!	!	!	!	!
=20	=20	=20	=20	=20	=20	=20	=20	=20	=20
!	!	!	!	!	!	!LO:TX:a:t=1	!	!	!
4r	.	1c	.	1r	.	1r	.	1ryy	1ryy
4F\	.	.	.	.	.	.	.	.	.
4En\	.	.	.	.	.	.	.	.	.
4D\	.	.	.	.	.	.	.	.	.
!	!	!	!	!LO:LB:g=original	!	!	!	!	!
=21	=21	=21	=21	=21	=21	=21	=21	=21	=21
!	!	!	!	!	!	!	!LO:DY:a	!	!
4C/	.	4c\	.	2r	.	2.cc\	p	1ryy	1ryy
4r	.	4en\	.	.	.	.	.	.	.
4C/	.	4g\	.	2een\	.	.	.	.	.
4r	.	4b-\	.	.	.	4cc\	.	.	.
=22	=22	=22	=22	=22	=22	=22	=22	=22	=22
4C/	.	4a\	.	4ff\	.	8.cc\L	.	1ryy	1ryy
.	.	.	.	.	.	16dd\Jk	.	.	.
4r	.	4f\	.	4dd\	.	4cc\	.	.	.
4C/	.	4en\	.	4r	.	4r	.	.	.
4r	.	4g\	.	4en/	.	4b-\	.	.	.
=23	=23	=23	=23	=23	=23	=23	=23	=23	=23
4C/	.	4f\	.	4f/	.	8.a\L	.	1ryy	1ryy
.	.	.	.	.	.	16dd\Jk	.	.	.
4r	.	4c\	.	4a/	.	4cc\	.	.	.
4C/	.	4g\	.	4r	.	2een\	.	.	.
4r	.	4b-\	.	4cc\	.	.	.	.	.
=24	=24	=24	=24	=24	=24	=24	=24	=24	=24
4C/	.	4a\	.	8.cc\L	.	4ff\	.	1ryy	1ryy
.	.	.	.	16dd\Jk	.	.	.	.	.
!LO:TX:t=P:problem=ubytek w źródle	!	!	!	!	!	!	!	!	!
4ryy	.	4f\	.	4cc\	.	4cc\	.	.	.
4C/yy	.	4g\	.	2een\	.	4r	.	.	.
4ryy	.	4c\	.	.	.	4b-\	.	.	.
!LO:LB:g=original	!	!	!	!	!	!	!	!	!
=25-	=25-	=25	=25	=25	=25	=25	=25	=25	=25
*	*	*tremolo	*	*	*	*	*	*	*
!!mixed beam:problem
!	!	!	!	!LO:TX:t=P:problem=mixed beam	!	!	!	!	!
4F\	.	8f\L	.	8ff\L	.	8.a\L	.	1ryy	1ryy
.	.	8f\	.	8a/	.	.	.	.	.
.	.	.	.	.	.	16dd\Jk	.	.	.
4r	.	8f\	.	8a/	.	4cc\	.	.	.
.	.	8f\J	.	8a/J	.	.	.	.	.
2r	.	8a\L	.	8cc\L	.	4r	.	.	.
.	.	8a\	.	8cc\	.	.	.	.	.
.	.	8a\	.	8cc\	.	4ff\	.	.	.
.	.	8a\J	.	8cc\J	.	.	.	.	.
=26	=26	=26	=26	=26	=26	=26	=26	=26	=26
1r	.	8b-\L	.	8dd\L	.	8.ff\L	.	1ryy	1ryy
.	.	8b-\J	.	8dd\	.	.	.	.	.
.	.	.	.	.	.	16gg\Jk	.	.	.
!	!	!	!	!	!	!LO:TX:a:t=|:problem	!	!	!
.	.	8a\L	.	8dd\	.	4ff\	.	.	.
.	.	8a\J	.	8dd\J	.	.	.	.	.
.	.	8b-\L	.	8dd\L	.	8.ff\L	.	.	.
.	.	8b-\J	.	8dd\	.	.	.	.	.
.	.	.	.	.	.	16gg\Jk	.	.	.
!	!	!	!	!	!	!LO:TX:a:t=|:problem	!	!	!
.	.	8a\L	.	8cc\	.	4ff\	.	.	.
.	.	8a\J	.	8cc\J	.	.	.	.	.
=27	=27	=27	=27	=27	=27	=27	=27	=27	=27
8C/	.	8g\L	.	8een\L	.	8bb-\	.	1ryy	1ryy
8r	.	8g\J	.	8ee\	.	8r	.	.	.
8F\	.	8a\L	.	8ff\	.	8aa\	.	.	.
8r	.	8a\J	.	8ff\J	.	8r	.	.	.
2r	.	8g\L	.	8a/L	.	4r	.	.	.
.	.	8g\J	.	8a/	.	.	.	.	.
.	.	8a\L	.	8cc/	.	8ff\	.	.	.
.	.	8a\J	.	8cc/J	.	8r	.	.	.
=28	=28	=28	=28	=28	=28	=28	=28	=28	=28
0r	.	8b-\L	.	8dd\L	.	8.ff\L	.	1ryy	1ryy
.	.	8b-\J	.	8dd\	.	.	.	.	.
.	.	.	.	.	.	16gg\Jk	.	.	.
.	.	8a\L	.	8cc\	.	4ff\	.	.	.
.	.	8a\J	.	8cc\J	.	.	.	.	.
.	.	8b-\L	.	8dd\L	.	8.ff\L	.	.	.
.	.	8b-\J	.	8dd\	.	.	.	.	.
.	.	.	.	.	.	16gg\Jk	.	.	.
.	.	8a\L	.	8cc\	.	4ff\	.	.	.
.	.	8a\J	.	8cc\J	.	.	.	.	.
!	!	!	!	!LO:LB:g=original	!	!LO:LB:g=original	!	!	!
=29-	=29	=29	=29	=29	=29	=29	=29	=29	=29
.	.	8g\L	.	8b-/L	.	2ee-\	.	1ryy	1ryy
.	.	8g\	.	8b-/	.	.	.	.	.
.	.	8g\	.	8b-/	.	.	.	.	.
.	.	8g\J	.	8b-/J	.	.	.	.	.
.	.	.	.	.	.	8qqgg/	.	.	.
.	.	8f\L	.	8a/L	.	4ff\	.	.	.
.	.	8f\	.	8a/	.	.	.	.	.
.	.	8f\	.	8a/	.	8ee-\L	.	.	.
.	.	8f\J	.	8a/J	.	8dd\J	.	.	.
!	!	!LO:LB:g=original	!	!	!	!	!	!	!
=30-	=30	=30	=30	=30	=30	=30	=30	=30	=30
1r	.	8e-\L	.	8g/L	.	2cc\	.	1ryy	1ryy
.	.	8e-\	.	8g/	.	.	.	.	.
.	.	8e-\	.	8g/	.	.	.	.	.
.	.	8e-\J	.	8g/J	.	.	.	.	.
.	.	.	.	.	.	8qqee-/	.	.	.
.	.	8d\L	.	8f/L	.	4dd\	.	.	.
.	.	8d\	.	8f/	.	.	.	.	.
.	.	8d\	.	8f/	.	8cc\L	.	.	.
.	.	8d\J	.	8f/J	.	8bn\J	.	.	.
=31	=31	=31	=31	=31	=31	=31	=31	=31	=31
*	*	*	*	*tremolo	*	*	*	*	*
!	!	!	!	!	!	!	!LO:DY:a	!	!
8C/L	.	8c\L	f	16en/LL	.	16cc\LL	f	1ryy	1ryy
.	.	.	.	16en/	.	16cc\	.	.	.
8C/	.	8c\	.	16en/	.	16cc\	.	.	.
.	.	.	.	16en/	.	16cc\JJ	.	.	.
*	*	*	*	*	*	*tremolo	*	*	*
8C/	.	8c\	.	16en/	.	16cc\LL	.	.	.
.	.	.	.	16en/	.	16cc\	.	.	.
8C/J	.	8c\J	.	16en/	.	16cc\	.	.	.
.	.	.	.	16en/JJ	.	16cc\JJ	.	.	.
*tremolo	*	*	*	*	*	*	*	*	*
8C/L	.	8c\L	.	16e/LL	.	16cc\LL	.	.	.
.	.	.	.	16e/	.	16cc\	.	.	.
8C/	.	8c\	.	16e/	.	16cc\	.	.	.
.	.	.	.	16e/	.	16cc\	.	.	.
8C/	.	8c\	.	16e/	.	16cc\	.	.	.
.	.	.	.	16e/	.	16cc\	.	.	.
8C/J	.	8c\J	.	16e/	.	16cc\	.	.	.
.	.	.	.	16e/JJ	.	16cc\JJ	.	.	.
=32	=32	=32	=32	=32	=32	=32	=32	=32	=32
8C/L	.	8d\L	.	16f/LL	.	16bn/LL	.	1ryy	1ryy
.	.	.	.	16f/	.	16bn/	.	.	.
8C/	.	8d\	.	16f/	.	16bn/	.	.	.
.	.	.	.	16f/	.	16bn/	.	.	.
8C/	.	8d\	.	16f/	.	16bn/	.	.	.
.	.	.	.	16f/	.	16bn/	.	.	.
8C/J	.	8d\J	.	16f/	.	16bn/	.	.	.
.	.	.	.	16f/JJ	.	16bn/JJ	.	.	.
8C/L	.	8en\L	.	16a/LL	.	16b-X/LL	.	.	.
.	.	.	.	16a/	.	16b-X/	.	.	.
8C/	.	8en\	.	16a/	.	16b-X/	.	.	.
.	.	.	.	16a/	.	16b-X/	.	.	.
8C/	.	8en\	.	16a/	.	16b-X/	.	.	.
.	.	.	.	16a/	.	16b-X/	.	.	.
8C/J	.	8en\J	.	16a/	.	16b-X/	.	.	.
.	.	.	.	16a/JJ	.	16b-X/JJ	.	.	.
=33	=33	=33	=33	=33	=33	=33	=33	=33	=33
8C/L	.	8f\L	.	16f/LL	.	16a/LL	.	1ryy	1ryy
.	.	.	.	16f/	.	16a/	.	.	.
8C/	.	8f\	.	16f/	.	16a/	.	.	.
.	.	.	.	16f/	.	16a/	.	.	.
8C/	.	8f\	.	16f/	.	16a/	.	.	.
.	.	.	.	16f/	.	16a/	.	.	.
8C/J	.	8f\J	.	16f/	.	16a/	.	.	.
.	.	.	.	16f/JJ	.	16a/JJ	.	.	.
8C/L	.	8c\L	.	16en/LL	.	16cc/LL	.	.	.
.	.	.	.	16en/	.	16cc/	.	.	.
8C/	.	8c\	.	16en/	.	16cc/	.	.	.
.	.	.	.	16en/	.	16cc/	.	.	.
8C/	.	8c\	.	16en/	.	16cc/	.	.	.
.	.	.	.	16en/	.	16cc/	.	.	.
8C/J	.	8c\J	.	16en/	.	16cc/	.	.	.
.	.	.	.	16en/JJ	.	16cc/JJ	.	.	.
=34	=34	=34	=34	=34	=34	=34	=34	=34	=34
8C/L	.	8d\L	.	16f/LL	.	16bn/LL	.	1ryy	1ryy
.	.	.	.	16f/	.	16bn/	.	.	.
8C/	.	8d\	.	16f/	.	16bn/	.	.	.
.	.	.	.	16f/	.	16bn/	.	.	.
8C/	.	8d\	.	16f/	.	16bn/	.	.	.
.	.	.	.	16f/	.	16bn/	.	.	.
8C/J	.	8d\J	.	16f/	.	16bn/	.	.	.
.	.	.	.	16f/JJ	.	16bn/JJ	.	.	.
8C/L	.	8en\L	.	16g/LL	.	16b-X/LL	.	.	.
.	.	.	.	16g/	.	16b-X/	.	.	.
8C/	.	8en\	.	16g/	.	16b-X/	.	.	.
.	.	.	.	16g/	.	16b-X/	.	.	.
8C/	.	8en\	.	16g/	.	16b-X/	.	.	.
.	.	.	.	16g/	.	16b-X/	.	.	.
8C/J	.	8en\J	.	16g/	.	16b-X/	.	.	.
.	.	.	.	16g/JJ	.	16b-X/JJ	.	.	.
*	*	*	*	*Xtremolo	*	*Xtremolo	*	*	*
=35	=35	=35	=35	=35	=35	=35	=35	=35	=35
8F\L	.	16f\L	.	8f/	.	8a/	.	1ryy	1ryy
.	.	16f\J	.	.	.	.	.	.	.
8F\	.	8r	.	8r	.	8r	.	.	.
8F\	.	16A/L	.	4r	.	4r	.	.	.
.	.	16A/J	.	.	.	.	.	.	.
8F\J	.	32A/L	.	.	.	.	.	.	.
.	.	32A/	.	.	.	.	.	.	.
.	.	32A/	.	.	.	.	.	.	.
.	.	32A/J	.	.	.	.	.	.	.
*Xtremolo	*	*	*	*	*	*	*	*	*
8F\L	.	16B-/LL	.	4r	.	4r	.	.	.
.	.	16B-/	.	.	.	.	.	.	.
8F\	.	16B-/	.	.	.	.	.	.	.
.	.	16B-/JJ	.	.	.	.	.	.	.
8A\	.	16c/LL	.	8ff\	.	8ff\	.	.	.
.	.	16c/	.	.	.	.	.	.	.
8A\J	.	16c/	.	8r	.	8r	.	.	.
.	.	16c/JJ	.	.	.	.	.	.	.
=36	=36	=36	=36	=36	=36	=36	=36	=36	=36
8B-\L	.	16c/LL	p	8een\	.	8gg\	.	1ryy	1ryy
.	.	16c/	.	.	.	.	.	.	.
8B-\	.	16c/	.	8r	.	8r	.	.	.
.	.	16c/JJ	.	.	.	.	.	.	.
8A\	.	16c/LL	.	8ff\	.	8ff\	.	.	.
.	.	16c/	.	.	.	.	.	.	.
8A\J	.	16c/	.	8r	.	8r	.	.	.
.	.	16c/JJ	.	.	.	.	.	.	.
8G\L	.	16c/LL	.	8b-\	.	8eenX\	.	.	.
.	.	16c/	.	.	.	.	.	.	.
8G\	.	16c/	.	8r	.	8r	.	.	.
.	.	16c/JJ	.	.	.	.	.	.	.
8F\	.	16c/LL	.	8a\	.	8ff\	.	.	.
.	.	16c/	.	.	.	.	.	.	.
!LO:TX:t=P:problem=ubytek w źródle	!	!	!	!	!	!	!	!	!
8F\Jyy	.	16c/	.	8r	.	8r	.	.	.
.	.	16c/JJ	.	.	.	.	.	.	.
!LO:LB:g=original	!	!	!	!	!	!	!	!	!
=37-	=37-	=37	=37	=37	=37	=37	=37	=37	=37
2ryy	.	16c/LL	f	2gg\	.	2bb-\	.	1ryy	1ryy
.	.	16c/	.	.	.	.	.	.	.
.	.	16c/	.	.	.	.	.	.	.
.	.	16c/	.	.	.	.	.	.	.
.	.	16c/	.	.	.	.	.	.	.
.	.	16c/	.	.	.	.	.	.	.
.	.	16c/	.	.	.	.	.	.	.
.	.	16c/JJ	.	.	.	.	.	.	.
8F\L	.	16c/LL	.	8ff\	.	8aa\	.	.	.
.	.	16c/	.	.	.	.	.	.	.
8F\	.	16c/	.	8r	.	8r	.	.	.
.	.	16c/	.	.	.	.	.	.	.
8A\	.	16c/	.	8ff\	.	8ff\	.	.	.
.	.	16c/	.	.	.	.	.	.	.
8A\J	.	16c/	.	8r	.	8r	.	.	.
.	.	16c/JJ	.	.	.	.	.	.	.
!	!	!	!	!LO:LB:g=original	!	!	!	!	!
=38	=38	=38	=38	=38	=38	=38	=38	=38	=38
8B-\L	.	16B-/LL	.	4.dd\	.	4.dd\	.	1ryy	1ryy
.	.	16B-/	.	.	.	.	.	.	.
8B-\	.	16B-/	.	.	.	.	.	.	.
.	.	16B-/	.	.	.	.	.	.	.
8B-\	.	16B-/	.	.	.	.	.	.	.
.	.	16B-/	.	.	.	.	.	.	.
8B-\J	.	16B-/	.	8dd\	.	8bb-\	.	.	.
.	.	16B-/JJ	.	.	.	.	.	.	.
!!mixed beam:problem
!LO:TX:t=P:problem=mixed beam	!	!	!	!	!	!	!	!	!
8c\L	.	16c/LL	.	8cc\L	.	8aa\L	.	.	.
.	.	16c/	.	.	.	.	.	.	.
8c\	.	16c/	.	8b-\	.	8gg\	.	.	.
.	.	16c/	.	.	.	.	.	.	.
8C/	.	16c/	.	8a\	.	8ff\	.	.	.
.	.	16c/	.	.	.	.	.	.	.
8C/J	.	16c/	.	8g\J	.	8een\J	.	.	.
.	.	16c/JJ	.	.	.	.	.	.	.
!	!	!	!	!	!	!LO:LB:g=original	!	!	!
=39	=39	=39	=39	=39	=39	=39	=39	=39	=39
8F\L	.	16c/LL	.	4a/	.	4ff\	.	1ryy	1ryy
.	.	16c/	.	.	.	.	.	.	.
8F\	.	16c/	.	.	.	.	.	.	.
.	.	16c/JJ	.	.	.	.	.	.	.
8F\	.	16A/LL	.	4r	.	4r	.	.	.
.	.	16A/	.	.	.	.	.	.	.
8F\J	.	16A/	.	.	.	.	.	.	.
.	.	16A/JJ	.	.	.	.	.	.	.
8G\L	.	16B-/LL	.	4r	.	4r	.	.	.
.	.	16B-/	.	.	.	.	.	.	.
8G\	.	16B-/	.	.	.	.	.	.	.
.	.	16B-/JJ	.	.	.	.	.	.	.
8A\	.	16c/LL	.	8ff\	.	8ff\	.	.	.
.	.	16c/	.	.	.	.	.	.	.
8A\J	.	16c/	.	8r	.	8r	.	.	.
.	.	16c/JJ	.	.	.	.	.	.	.
=40	=40	=40	=40	=40	=40	=40	=40	=40	=40
8B-\L	p	16c/LL	.	8een\	.	8gg\	.	1ryy	1ryy
.	.	16c/	.	.	.	.	.	.	.
8B-\	.	16c/	.	8r	.	8r	.	.	.
.	.	16c/	.	.	.	.	.	.	.
8A\	.	16c/	.	8ff\	.	8ff\	.	.	.
.	.	16c/	.	.	.	.	.	.	.
8A\J	.	16c/	.	8r	.	8r	.	.	.
.	.	16c/JJ	.	.	.	.	.	.	.
8G\L	.	16c/LL	.	8b-/	.	8een\	.	.	.
.	.	16c/	.	.	.	.	.	.	.
8G\	.	16c/	.	8r	.	8r	.	.	.
.	.	16c/	.	.	.	.	.	.	.
8F\	.	16c/	.	8a/	.	8ff\	.	.	.
.	.	16c/	.	.	.	.	.	.	.
8F\J	.	16c/	.	8r	.	8r	.	.	.
.	.	16c/JJ	.	.	.	.	.	.	.
!	!	!LO:LB:g=original	!	!	!	!	!	!	!
=41	=41	=41	=41	=41	=41	=41	=41	=41	=41
!LO:TX:a:t=t	!	!	!	!	!	!	!	!	!
2En\	.	16c/LL	.	2gg\	f	2bb-\	.	1ryy	1ryy
.	.	16c/	.	.	.	.	.	.	.
.	.	16c/	.	.	.	.	.	.	.
.	.	16c/	.	.	.	.	.	.	.
.	.	16c/	.	.	.	.	.	.	.
.	.	16c/	.	.	.	.	.	.	.
.	.	16c/	.	.	.	.	.	.	.
.	.	16c/JJ	.	.	.	.	.	.	.
8F\L	.	16c/LL	.	8ff\	.	8aa\	.	.	.
.	.	16c/	.	.	.	.	.	.	.
8F\	.	16c/	.	8r	.	8r	.	.	.
.	.	16c/	.	.	.	.	.	.	.
8A\	.	16c/	.	8cc\	.	8ff\	.	.	.
.	.	16c/	.	.	.	.	.	.	.
8A\J	.	16c/	.	8r	.	8r	.	.	.
.	.	16c/JJ	.	.	.	.	.	.	.
=42	=42	=42	=42	=42	=42	=42	=42	=42	=42
8B-\L	.	16B-/LL	.	4.dd\	.	4.dd\	.	1ryy	1ryy
.	.	16B-/	.	.	.	.	.	.	.
8B-\	.	16B-/	.	.	.	.	.	.	.
.	.	16B-/	.	.	.	.	.	.	.
8B-\	.	16B-/	.	.	.	.	.	.	.
.	.	16B-/	.	.	.	.	.	.	.
8B-\J	.	16B-/	.	8dd\	.	8bb-\	.	.	.
.	.	16B-/JJ	.	.	.	.	.	.	.
!!mixed beam:problem
!LO:TX:t=P:problem=mixed beam	!	!	!	!	!	!	!	!	!
8c\L	.	16c/LL	.	8cc\L	.	8aa\L	.	.	.
.	.	16c/	.	.	.	.	.	.	.
8c\	.	16c/	.	8b-\	.	8gg\	.	.	.
.	.	16c/	.	.	.	.	.	.	.
8C/	.	16c/	.	8a\	.	8ff\	.	.	.
.	.	16c/	.	.	.	.	.	.	.
8C/J	.	16c/	.	8g\J	.	8een\J	.	.	.
.	.	16c/JJ	.	.	.	.	.	.	.
=43	=43	=43	=43	=43	=43	=43	=43	=43	=43
8F\L	.	16f\L	.	4.a/	.	4ff\	.	1ryy	1ryy
.	.	16f\J	.	.	.	.	.	.	.
*	*	*Xtremolo	*	*	*	*	*	*	*
8F\	.	8r	.	.	.	.	.	.	.
8F\	.	4r	.	.	.	8r	.	.	.
8A\J	.	.	.	8a/	.	8a/	.	.	.
8G\L	.	2r	.	8g/L	.	8g/L	.	.	.
8F\	.	.	.	8f/	.	8f/	.	.	.
8En\	.	.	.	8en/	.	8en/	.	.	.
8D\J	.	.	.	8d/J	.	8d/J	.	.	.
!LO:LB:g=original	!	!	!	!	!	!	!	!	!
=44-	=44-	=44	=44	=44	=44	=44	=44	=44	=44
4C/	.	2b-\	.	4c/	.	4c/	.	1ryy	1ryy
4r	.	.	.	2cc\	.	4r	.	.	.
4C/	.	8a\	.	.	.	2r	.	.	.
.	.	8r	.	.	.	.	.	.	.
4r	.	8f\	.	4cc\	.	.	.	.	.
.	.	8r	.	.	.	.	.	.	.
=45	=45	=45	=45	=45	=45	=45	=45	=45	=45
4C/	.	4.en\	.	4cc\	.	2bb-\	.	1ryy	1ryy
4r	.	.	.	2cc\	.	.	.	.	.
.	.	16f\LL	.	.	.	.	.	.	.
.	.	16g\JJ	.	.	.	.	.	.	.
4C/	.	4f\	.	.	.	8aa\	.	.	.
.	.	.	.	.	.	8r	.	.	.
4r	.	4r	.	4cc\	.	8ff\	.	.	.
.	.	.	.	.	.	8r	.	.	.
=46	=46	=46	=46	=46	=46	=46	=46	=46	=46
4C/	.	2b-\	.	4cc\	.	4.een\	.	1ryy	1ryy
4r	.	.	.	2cc\	.	.	.	.	.
.	.	.	.	.	.	16ff\LL	.	.	.
.	.	.	.	.	.	16gg\JJ	.	.	.
4C/	.	8a\	.	.	.	4ff\	.	.	.
.	.	8r	.	.	.	.	.	.	.
4r	.	8f\	.	4cc\	.	4r	.	.	.
.	.	8r	.	.	.	.	.	.	.
!	!	!	!	!LO:LB:g=original	!	!	!	!	!
=47	=47	=47	=47	=47	=47	=47	=47	=47	=47
!	!	!	!	!	!	!LO:TX:a:t=P:problem=repetycja - 2 takty	!	!	!
4C/	.	4.en\	.	4cc\	.	2bb-\yy	.	1ryy	1ryy
4r	.	.	.	2cc\	.	.	.	.	.
.	.	16f\LL	.	.	.	.	.	.	.
.	.	16g\JJ	.	.	.	.	.	.	.
4C/	.	4f\	.	.	.	8aa\yy	.	.	.
.	.	.	.	.	.	8ryy	.	.	.
4r	.	4r	.	4cc\	.	8ff\yy	.	.	.
.	.	.	.	.	.	8ryy	.	.	.
=48	=48	=48	=48	=48	=48	=48	=48	=48	=48
4C/	.	2b-\	.	4cc\	.	4.een\yy	.	1ryy	1ryy
4r	.	.	.	2cc\	.	.	.	.	.
.	.	.	.	.	.	16ff\LLyy	.	.	.
.	.	.	.	.	.	16gg\JJyy	.	.	.
4C/	.	8a\	.	.	.	4ff\yy	.	.	.
.	.	8r	.	.	.	.	.	.	.
4r	.	8f\	.	4cc\	.	4ryy	.	.	.
.	.	8r	.	.	.	.	.	.	.
!	!	!LO:LB:g=original	!	!	!	!LO:LB:g=original	!	!	!
=49	=49	=49	=49	=49	=49	=49	=49	=49	=49
!	!	!	!	!	!LO:DY:a	!	!LO:DY:a	!	!
8AA/L	.	8c/L	.	4ff\	f	4ff\	f	1ryy	1ryy
8AA/	.	8c/	.	.	.	.	.	.	.
8AA/	.	8c/	.	16ff\LL	.	16ff\LL	.	.	.
.	.	.	.	16een\	.	16een\	.	.	.
8AA/J	.	8c/J	.	16ff\	.	16ff\	.	.	.
.	.	.	.	16gg\JJ	.	16gg\JJ	.	.	.
*tremolo	*	*	*	*	*	*	*	*	*
8AA/L	.	8c\L	.	4ff\	.	4ff\	.	.	.
8AA/	.	8c\	.	.	.	.	.	.	.
8AA/	.	8f\	.	4ee-X\	.	4ee-X\	.	.	.
8AA/J	.	8f\J	.	.	.	.	.	.	.
=50	=50	=50	=50	=50	=50	=50	=50	=50	=50
*	*	*tremolo	*	*	*	*	*	*	*
8BB-/L	.	8f\L	.	4cc#X\	.	4cc#X\	.	1ryy	1ryy
8BB-/	.	8f\	.	.	.	.	.	.	.
8BB-/	.	8f\	.	4dd\	.	4dd\	.	.	.
8BB-/J	.	8f\J	.	.	.	.	.	.	.
8BB-/L	.	8f\L	.	4r	.	4r	.	.	.
8BB-/	.	8f\	.	.	.	.	.	.	.
8BB-/	.	8f\	.	4ccn\	.	(>8ff\L	.	.	.
8BB-/J	.	8f\J	.	.	.	8gg\J)	.	.	.
!	!	!	!	!LO:LB:g=original	!	!	!	!	!
=51	=51	=51	=51	=51	=51	=51	=51	=51	=51
8C/L	.	8c/L	.	8cc\L	.	8aa\L	.	1ryy	1ryy
8C/	.	8c/	.	8a\J	.	8ff\J	.	.	.
8C/	.	8c/	.	4a/	.	4ff\	.	.	.
8C/J	.	8c/J	.	.	.	.	.	.	.
8C/L	.	8c/L	.	4r	.	4r	.	.	.
8C/	.	8c/	.	.	.	.	.	.	.
8C/	.	8c/	.	4a/	.	4cc\	.	.	.
8C/J	.	8c/J	.	.	.	.	.	.	.
=52	=52	=52	=52	=52	=52	=52	=52	=52	=52
8C/L	.	8c/L	.	4.a/	.	4.cc\	.	1ryy	1ryy
8C/	.	8c/	.	.	.	.	.	.	.
8C/	.	8c/	.	.	.	.	.	.	.
8C/J	.	8c/J	.	16b-/LL	.	16dd\LL	.	.	.
.	.	.	.	16a/JJ	.	16cc\JJ	.	.	.
8C/L	.	8c/L	.	4g/	.	4b-/	.	.	.
8C/	.	8c/	.	.	.	.	.	.	.
8C/	.	8c/	.	4f/	.	4a/	.	.	.
8C/J	.	8c/J	.	.	.	.	.	.	.
=53	=53	=53	=53	=53	=53	=53	=53	=53	=53
8C/L	.	8c/L	.	(>8dd\L	.	8bb-\L	.	1ryy	1ryy
8C/	.	8c/	.	8b-\J)	.	8gg\J	.	.	.
8C/	.	8c/	.	4b-\	.	4gg\	.	.	.
8C/J	.	8c/J	.	.	.	.	.	.	.
8C/L	.	8c/L	.	4r	.	4r	.	.	.
8C/	.	8c/	.	.	.	.	.	.	.
8C/	.	8c/	.	4b-\	.	4dd\	.	.	.
8C/J	.	8c/J	.	.	.	.	.	.	.
=54	=54	=54	=54	=54	=54	=54	=54	=54	=54
8C/L	.	8c/L	.	4.b-\	.	4.dd\	.	1ryy	1ryy
8C/	.	8c/	.	.	.	.	.	.	.
8C/	.	8c/	.	.	.	.	.	.	.
8C/J	.	8c/J	.	16cc\LL	.	16een\LL	.	.	.
.	.	.	.	16b-\JJ	.	16dd\JJ	.	.	.
8C/L	.	8c/L	.	4a/	.	4cc\	.	.	.
8C/	.	8c/	.	.	.	.	.	.	.
8C/	.	8c/	.	4g/	.	4b-\	.	.	.
8C/J	.	8c/J	.	.	.	.	.	.	.
!LO:LB:g=original	!	!	!	!	!	!	!	!	!
=55	=55	=55	=55	=55	=55	=55	=55	=55	=55
8F\L	.	8f\L	.	8f/	.	8a/	.	1ryy	1ryy
8F\	.	8f\	.	8r	.	8r	.	.	.
.	.	.	.	8qqgg/	.	8qqgg/	.	.	.
8F\	.	8f\	.	16ff\LL	.	16ff\LL	.	.	.
.	.	.	.	16een\	.	16een\	.	.	.
8F\J	.	8f\J	.	16ff\	.	16ff\	.	.	.
.	.	.	.	16gg\JJ	.	16gg\JJ	.	.	.
8AA/L	.	8c\L	.	8aa\	.	8aa\	.	.	.
8AA/	.	8c\	.	8r	.	8r	.	.	.
.	.	.	.	8qqgg/	.	8qqgg/	.	.	.
8AA/	.	8c\	.	16ff\LL	.	16ff\LL	.	.	.
.	.	.	.	16een\	.	16een\	.	.	.
8AA/J	.	8c\J	.	16ff\	.	16ff\	.	.	.
.	.	.	.	16gg\JJ	.	16gg\JJ	.	.	.
!	!	!	!	!	!	!LO:LB:g=original	!	!	!
=56	=56	=56	=56	=56	=56	=56	=56	=56	=56
8BB-/L	.	8d\L	.	8aa\	.	8aa\	.	1ryy	1ryy
8BB-/	.	8d\	.	8r	.	8r	.	.	.
.	.	.	.	16qqgg/	.	8qqgg/	.	.	.
8BB-/	.	8d\	.	16ff\LL	.	16ff\LL	.	.	.
.	.	.	.	16een\	.	16een\	.	.	.
8BB-/J	.	8d\J	.	16ff\	.	16ff\	.	.	.
.	.	.	.	16gg\JJ	.	16gg\JJ	.	.	.
8C/L	.	8en\L	.	8aa\	.	8aa\	.	.	.
8C/	.	8en\	.	8r	.	8r	.	.	.
.	.	.	.	16qqgg/	.	8qqgg/	.	.	.
8C/	.	8en\	.	16ff\LL	.	16ff\LL	.	.	.
.	.	.	.	16een\	.	16een\	.	.	.
8C/J	.	8en\J	.	16ff\	.	16ff\	.	.	.
.	.	.	.	16gg\JJ	.	16gg\JJ	.	.	.
*Xtremolo	*	*Xtremolo	*	*	*	*	*	*	*
=57	=57	=57	=57	=57	=57	=57	=57	=57	=57
!!mixed beam:problem
!	!	!	!	!LO:TX:t=P:problem=mixed beam	!	!LO:TX:t=P:problem=mixed beam	!	!	!
8D/L	.	8d\L	.	8.ff\L	.	8.ff\L	.	1ryy	1ryy
8D/	.	8d\	.	.	.	.	.	.	.
.	.	.	.	16f/Jk	.	16f/Jk	.	.	.
.	.	.	.	8qqee-/	.	8qqee-/	.	.	.
8BB-/	.	8f\	.	8dd\L	.	8dd\L	.	.	.
8BB-/J	.	8f\J	.	16cc\L	.	16cc\L	.	.	.
.	.	.	.	16b-\JJ	.	16b-\JJ	.	.	.
8C/L	.	8f\L	.	4a/	.	4a/	.	.	.
8C/	.	8f\	.	.	.	.	.	.	.
8C/	.	8en\	.	4g/	.	4g/	.	.	.
8C/J	.	8e\J	.	.	.	.	.	.	.
!	!	!	!	!LO:LB:g=original	!	!	!	!	!
=58	=58	=58	=58	=58	=58	=58	=58	=58	=58
4F\	.	4f\	.	8f/L	.	8f/L	.	1ryy	1ryy
.	.	.	.	8f/	.	8a/	.	.	.
4r	.	4r	.	8g/	.	8b-/	.	.	.
.	.	.	.	8a/J	.	8cc/J	.	.	.
2r	.	2r	.	8b-\L	.	8dd\L	.	.	.
.	.	.	.	8cc\	.	8een\	.	.	.
.	.	.	.	8dd\	.	8ff\	.	.	.
.	.	.	.	8een\J	.	8gg\J	.	.	.
=59	=59	=59	=59	=59	=59	=59	=59	=59	=59
!!mixed beam:problem
!	!	!	!	!LO:TX:t=P:problem=mixed beam	!	!LO:TX:t=P:problem=mixed beam	!	!	!
8r	.	8r	.	8ff\L	.	8aa\L	.	1ryy	1ryy
8F\L	.	8f\L	.	8a/	.	8a/	.	.	.
8En\	.	8en\	.	8g/	.	8g/	.	.	.
8D\J	.	8d\J	.	8f/J	.	8f/J	.	.	.
8C/L	.	8c/L	.	8en/L	.	8en/L	.	.	.
8BB-/	.	8A#X/	.	8d/	.	8d/	.	.	.
8AA/	.	8G/J	.	8c/	.	8c/	.	.	.
!	!	!LO:TX:t=P:problem=ubytek w źródle	!	!	!	!	!	!	!
8GG/J	.	8ryy	.	8B-/J	.	8B-/J	.	.	.
!	!	!LO:LB:g=original	!	!	!	!	!	!	!
=60	=60	=60	=60	=60	=60	=60	=60	=60	=60
8F\	.	8F/	.	8A/L	.	8A/L	.	1ryy	1ryy
8r	.	8r	.	8f/	.	8a/	.	.	.
4r	.	4r	.	8g/	.	8b-/	.	.	.
.	.	.	.	8a/J	.	8cc/J	.	.	.
2r	.	2r	.	8b-\L	.	8dd\L	.	.	.
.	.	.	.	8cc\	.	8een\	.	.	.
.	.	.	.	8dd\	.	8ff\	.	.	.
.	.	.	.	8een\J	.	8gg\J	.	.	.
=61	=61	=61	=61	=61	=61	=61	=61	=61	=61
!!mixed beam:problem
!	!	!	!	!LO:TX:t=P:problem=mixed beam	!	!LO:TX:t=P:problem=mixed beam	!	!	!
8r	.	8r	.	8ff\L	.	8aa\L	.	1ryy	1ryy
8F\L	.	8f\L	.	8a/	.	8a/	.	.	.
8En\	.	8en\	.	8g/	.	8g/	.	.	.
8D\J	.	8d\J	.	8f/J	.	8f/J	.	.	.
8C/L	.	8c/L	.	8en/L	.	8en/L	.	.	.
8BB-/	.	8B-/	.	8d/	.	8d/	.	.	.
8AA/	.	8A/	.	8c/	.	8c/	.	.	.
8GG/J	.	8G/J	.	8B-/J	.	8B-/J	.	.	.
!	!	!	!	!	!	!LO:LB:g=original	!	!	!
=62	=62	=62	=62	=62	=62	=62	=62	=62	=62
8F\L	.	8F/L	.	4A/ 4f/	.	4A/ 4f/	.	1ryy	1ryy
8F\	.	8F/	.	.	.	.	.	.	.
8F\	.	8F/	.	4A/ 4f/	.	4A/ 4f/	.	.	.
8F\J	.	8F/J	.	.	.	.	.	.	.
4F\	.	4F/	.	4A/ 4f/	.	4A/ 4f/	.	.	.
4r	.	4r	.	4r	.	4r	.	.	.
!LO:LB:g=original	!	!	!	!	!	!	!	!	!
=63:|!|:	=63:|!|:	=63:|!|:	=63:|!|:	=63:|!|:	=63:|!|:	=63:|!|:	=63:|!|:	=63:|!|:	=63:|!|:
*>B	*	*>B	*	*>B	*	*>B	*	*>B	*>B
8F\	.	1r	.	4.a/	.	4.cc\	.	1ryy	1ryy
8r	.	.	.	.	.	.	.	.	.
8F\	.	.	.	.	.	.	.	.	.
8r	.	.	.	16b-/LL	.	16dd\LL	.	.	.
.	.	.	.	16a/JJ	.	16cc\JJ	.	.	.
8F\	.	.	.	8b-/	.	8dd\	.	.	.
8r	.	.	.	8r	.	8r	.	.	.
8F\	.	.	.	8g/	.	8een\	.	.	.
8r	.	.	.	8r	.	8r	.	.	.
=64	=64	=64	=64	=64	=64	=64	=64	=64	=64
!	!	!	!LO:DY:a	!	!	!	!	!	!
8F\	.	4.c\	p	8a/	.	8ff\	.	1ryy	1ryy
8r	.	.	.	8r	.	8r	.	.	.
8A\	.	.	.	8a/	.	8a/	.	.	.
8r	.	16d\LL	.	8r	.	8r	.	.	.
.	.	16c\JJ	.	.	.	.	.	.	.
8B-\	.	8d\	.	8g/	.	8b-/	.	.	.
8r	.	8r	.	8r	.	8r	.	.	.
8c\	.	8en\	.	8g/	.	8g/	.	.	.
8r	.	8r	.	8r	.	8r	.	.	.
!	!	!	!	!LO:LB:g=original	!	!	!	!	!
=65	=65	=65	=65	=65	=65	=65	=65	=65	=65
8F\	.	8f\	.	8f/	.	8a/	.	1ryy	1ryy
8r	.	8r	.	8r	.	8r	.	.	.
8F\	.	8c/	.	8.a/L	.	8.cc\L	.	.	.
8r	.	8r	.	.	.	.	.	.	.
.	.	.	.	32b-/LL	.	32dd\LL	.	.	.
.	.	.	.	32a/JJJ	.	32cc\JJJ	.	.	.
8F\	.	8B-/	.	8b-/	.	8dd\	.	.	.
8r	.	8r	.	8r	.	8r	.	.	.
8F\	.	8G/	.	8b-/	.	8een\	.	.	.
8r	.	8r	.	8r	.	8r	.	.	.
=66	=66	=66	=66	=66	=66	=66	=66	=66	=66
8F\	.	8F/	.	8a/	.	8ff\	.	1ryy	1ryy
8r	.	8r	.	8r	.	8r	.	.	.
8A\	.	8.c/L	.	4r	.	8cc\	.	.	.
8r	.	.	.	.	.	8r	.	.	.
.	.	32d/LL	.	.	.	.	.	.	.
.	.	32c/JJJ	.	.	.	.	.	.	.
8B-\	.	8d\	.	2r	.	8b-/	.	.	.
8r	.	8r	.	.	.	8r	.	.	.
8c\	.	8en\	.	.	.	8g/	.	.	.
8r	.	8r	.	.	.	8r	.	.	.
!	!	!LO:LB:g=original	!	!	!	!	!	!	!
=67	=67	=67	=67	=67	=67	=67	=67	=67	=67
8F\	.	1A	.	[<1c	.	4f/	.	1ryy	1ryy
8r	.	.	.	.	.	.	.	.	.
8F\	.	.	.	.	.	16f/LL	.	.	.
.	.	.	.	.	.	16g/	.	.	.
8r	.	.	.	.	.	16f/	.	.	.
.	.	.	.	.	.	16g/JJ	.	.	.
8C/	.	.	.	.	.	4f/	.	.	.
8r	.	.	.	.	.	.	.	.	.
8AA/	.	.	.	.	.	4f/	.	.	.
8r	.	.	.	.	.	.	.	.	.
!	!	!	!	!	!	!LO:LB:g=original	!	!	!
=68	=68	=68	=68	=68	=68	=68	=68	=68	=68
8F\	.	1A	.	1c_<	.	4a/	.	1ryy	1ryy
8r	.	.	.	.	.	.	.	.	.
8F\	.	.	.	.	.	16a/LL	.	.	.
.	.	.	.	.	.	(<16b-/	.	.	.
8r	.	.	.	.	.	16a/	.	.	.
.	.	.	.	.	.	16b-/JJ)	.	.	.
8C/	.	.	.	.	.	4a/	.	.	.
8r	.	.	.	.	.	.	.	.	.
!LO:TX:t=P:problem=ubytek źródła	!	!	!	!	!	!	!	!	!
8AA/yy	.	.	.	.	.	4a/	.	.	.
8ryy	.	.	.	.	.	.	.	.	.
!LO:LB:g=original	!	!	!	!	!	!	!	!	!
=69-	=69-	=69	=69	=69	=69	=69	=69	=69	=69
8F\yy	.	1A	.	1c]	.	4cc\	.	1ryy	1ryy
8ryy	.	.	.	.	.	.	.	.	.
8F\	.	.	.	.	.	(>16cc\LL	.	.	.
.	.	.	.	.	.	16dd\)	.	.	.
8r	.	.	.	.	.	16cc\	.	.	.
.	.	.	.	.	.	16dd\JJ	.	.	.
8F\	.	.	.	.	.	4cc\	.	.	.
8r	.	.	.	.	.	.	.	.	.
8F\	.	.	.	.	.	4cc\	.	.	.
8r	.	.	.	.	.	.	.	.	.
=70	=70	=70	=70	=70	=70	=70	=70	=70	=70
8D/L	.	8A/L	.	16cc\LL	.	16ff#X\LL	.	1ryy	1ryy
.	.	.	.	16cc\	.	16ff#\	.	.	.
8D/	.	8d/	.	16cc\	.	16ff#\	.	.	.
.	.	.	.	16cc\JJ	.	16ff#\JJ	.	.	.
*	*	*	*	*tremolo	*	*tremolo	*	*	*
8D/	.	8d/	.	16cc\LL	.	16ff#\LL	.	.	.
.	.	.	.	16cc\	.	16ff#\	.	.	.
8D/J	.	8d/J	.	16cc\	.	16ff#\	.	.	.
.	.	.	.	16cc\JJ	.	16ff#\JJ	.	.	.
*tremolo	*	*tremolo	*	*	*	*	*	*	*
8D/L	.	8a\L	.	16cc\LL	.	16ff#\LL	.	.	.
.	.	.	.	16cc\	.	16ff#\	.	.	.
8D/	.	8a\	.	16cc\	.	16ff#\	.	.	.
.	.	.	.	16cc\	.	16ff#\	.	.	.
8D/	.	8a\	.	16cc\	.	16ff#\	.	.	.
.	.	.	.	16cc\	.	16ff#\	.	.	.
8D/J	.	8a\J	.	16cc\	.	16ff#\	.	.	.
.	.	.	.	16cc\JJ	.	16ff#\JJ	.	.	.
=71	=71	=71	=71	=71	=71	=71	=71	=71	=71
8D/L	.	8g\L	.	16b-/LL	.	16gg\LL	.	1ryy	1ryy
.	.	.	.	16b-/	.	16gg\	.	.	.
8D/	.	8g\	.	16b-/	.	16gg\	.	.	.
.	.	.	.	16b-/	.	16gg\	.	.	.
8D/	.	8g\	.	16b-/	.	16gg\	.	.	.
.	.	.	.	16b-/	.	16gg\	.	.	.
8D/J	.	8g\J	.	16b-/	.	16gg\	.	.	.
.	.	.	.	16b-/JJ	.	16gg\JJ	.	.	.
8D/L	.	8g\L	.	16b-/LL	.	16cc#X\LL	.	.	.
.	.	.	.	16b-/	.	16cc#X\	.	.	.
8D/	.	8g\	.	16b-/	.	16cc#X\	.	.	.
.	.	.	.	16b-/	.	16cc#X\	.	.	.
8D/	.	8g\	.	16b-/	.	16cc#X\	.	.	.
.	.	.	.	16b-/	.	16cc#X\	.	.	.
8D/J	.	8g\J	.	16b-/	.	16cc#X\	.	.	.
.	.	.	.	16b-/JJ	.	16cc#X\JJ	.	.	.
*	*	*Xtremolo	*	*	*	*	*	*	*
=72	=72	=72	=72	=72	=72	=72	=72	=72	=72
8D/L	.	8f#X\L	.	16a/LL	.	16dd\LL	.	1ryy	1ryy
.	.	.	.	16a/	.	16dd\	.	.	.
8D/	.	8f#\	.	16a/	.	16dd\	.	.	.
.	.	.	.	16a/JJ	.	16dd\JJ	.	.	.
8D/	.	8a\	.	16cc/LL	.	16ff#X\LL	.	.	.
.	.	.	.	16cc/	.	16ff#X\	.	.	.
8D/J	.	8a\J	.	16cc/	.	16ff#X\	.	.	.
.	.	.	.	16cc/JJ	.	16ff#X\JJ	.	.	.
*	*	*tremolo	*	*	*	*	*	*	*
8D/L	.	8g\L	.	16b-/LL	.	16gg\LL	.	.	.
.	.	.	.	16b-/	.	16gg\	.	.	.
8D/	.	8g\	.	16b-/	.	16gg\	.	.	.
.	.	.	.	16b-/	.	16gg\JJ	.	.	.
8D/	.	8g\	.	16b-/	.	16cc#X\LL	.	.	.
.	.	.	.	16b-/	.	16cc#X\	.	.	.
8D/J	.	8g\J	.	16b-/	.	16cc#X\	.	.	.
.	.	.	.	16b-/JJ	.	16cc#X\JJ	.	.	.
*	*	*Xtremolo	*	*	*	*	*	*	*
=73	=73	=73	=73	=73	=73	=73	=73	=73	=73
8D/L	.	8f#X\L	.	16a/LL	.	16dd\LL	.	1ryy	1ryy
.	.	.	.	16a/	.	16dd\	.	.	.
8D/	.	8f#\	.	16a/	.	16dd\	.	.	.
.	.	.	.	16a/JJ	.	16dd\JJ	.	.	.
8D/	.	8a\	.	16cc/LL	.	16ff#X\LL	.	.	.
.	.	.	.	16cc/	.	16ff#X\	.	.	.
8D/J	.	8a\J	.	16cc/	.	16ff#X\	.	.	.
.	.	.	.	16cc/JJ	.	16ff#X\JJ	.	.	.
*	*	*tremolo	*	*	*	*	*	*	*
8D/L	.	8g\L	.	16b-/LL	.	16gg\LL	.	.	.
.	.	.	.	16b-/	.	16gg\	.	.	.
8D/	.	8g\	.	16b-/	.	16gg\	.	.	.
.	.	.	.	16b-/	.	16gg\JJ	.	.	.
8D/	.	8g\	.	16b-/	.	16cc#X\LL	.	.	.
.	.	.	.	16b-/	.	16cc#X\	.	.	.
8D/J	.	8g\J	.	16b-/	.	16cc#X\	.	.	.
.	.	.	.	16b-/JJ	.	16cc#X\JJ	.	.	.
*Xtremolo	*	*Xtremolo	*	*Xtremolo	*	*Xtremolo	*	*	*
=74	=74	=74	=74	=74	=74	=74	=74	=74	=74
4D/	.	4f#X\	.	4a/	.	4dd\	.	1ryy	1ryy
4r	.	4f#\	.	4a/	.	(>8.dd\L	.	.	.
.	.	.	.	.	.	32ee-\LL)	.	.	.
.	.	.	.	.	.	32dd\JJJ	.	.	.
2r	.	4g\	.	4b-/	.	8dd\L	.	.	.
.	.	.	.	.	.	8dd\	.	.	.
.	.	4c/	.	4f#X/	.	8dd\	.	.	.
.	.	.	.	.	.	8dd\J	.	.	.
!	!	!	!	!LO:LB:g=original	!	!LO:LB:g=original	!	!	!
=75	=75	=75	=75	=75	=75	=75	=75	=75	=75
4D/	.	4B-/	.	4g/	.	8dd\L	.	1ryy	1ryy
.	.	.	.	.	.	8dd\J	.	.	.
4r	.	4f#X\	.	4a/	.	(>8.dd\L	.	.	.
.	.	.	.	.	.	32ee-\LL	.	.	.
.	.	.	.	.	.	32dd\JJJ)	.	.	.
2r	.	4g\	.	4b-/	.	8dd\L	.	.	.
.	.	.	.	.	.	8dd\	.	.	.
.	.	4c/	.	4f#X/	.	8dd\	.	.	.
.	.	.	.	.	.	8dd\J	.	.	.
=76	=76	=76	=76	=76	=76	=76	=76	=76	=76
4G\	.	4B-/	.	4g/	.	8dd\	.	1ryy	1ryy
.	.	.	.	.	.	8r	.	.	.
8F\L	.	4bn\	.	4dd\	.	8.gg\L	.	.	.
8F\J	.	.	.	.	.	.	.	.	.
.	.	.	.	.	.	32aa\LL	.	.	.
.	.	.	.	.	.	32gg\JJJ	.	.	.
8E-\L	.	4cc\	.	4ee-\	.	8gg\L	.	.	.
8E-\J	.	.	.	.	.	8gg\	.	.	.
8BBn/L	.	4dd\	.	4ff\	.	8gg\	.	.	.
8BB/J	.	.	.	.	.	8gg\J	.	.	.
=77	=77	=77	=77	=77	=77	=77	=77	=77	=77
8C/L	.	4cc\	.	4g/	.	8gg\L	.	1ryy	1ryy
8C/J	.	.	.	.	.	8gg\J	.	.	.
8F\L	.	4bn\	.	4dd\	.	8.gg\L	.	.	.
8F\J	.	.	.	.	.	.	.	.	.
.	.	.	.	.	.	32aa\LL	.	.	.
.	.	.	.	.	.	32gg\JJJ	.	.	.
8E-\L	.	4cc\	.	4ee-\	.	8gg\L	.	.	.
8E-\J	.	.	.	.	.	8gg\	.	.	.
8BBn/L	.	4dd\	.	4ff\	.	8gg\	.	.	.
8BB/J	.	.	.	.	.	8gg\J	.	.	.
!LO:LB:g=original	!	!LO:LB:g=original	!	!	!	!	!	!	!
=78	=78	=78	=78-	=78-	=78	=78	=78	=78	=78
8C/L	.	8cc\L	.	4ee-\	.	4gg\	.	1ryy	1ryy
8C/	.	8c\	.	.	.	.	.	.	.
8C/	.	8c\	.	16cc\LL	.	(>16ee-\LL	.	.	.
.	.	.	.	16dd\	.	16ff\	.	.	.
8C/J	.	8c\J	.	16cc\	.	16ee-\)	.	.	.
.	.	.	.	16dd\JJ	.	16ff\JJ	.	.	.
*tremolo	*	*tremolo	*	*	*	*	*	*	*
8C/L	.	8c/L	.	4cc\	.	4ee-\	.	.	.
8C/	.	8c/	.	.	.	.	.	.	.
8C/	.	8c/	.	16a\LL	.	(>16cc\LL	.	.	.
.	.	.	.	16b-\	.	16dd\	.	.	.
8C/J	.	8c/J	.	16a\	.	16cc\)	.	.	.
.	.	.	.	16b-\JJ	.	16dd\JJ	.	.	.
!LO:LB:g=original	!	!	!	!	!	!	!	!	!
=79	=79	=79	=79	=79	=79	=79	=79	=79	=79
8C/L	.	8c\L	.	8a/L	.	8cc\L	.	1ryy	1ryy
8C/	.	8c\	.	8cc/	.	8ee-\	.	.	.
8C/	.	8c\	.	8a/	.	8cc\	.	.	.
8C/J	.	8c\J	.	8cc/J	.	8ee-\J	.	.	.
8C/L	.	8c\L	.	4a/	.	8cc\	.	.	.
8C/	.	8c\	.	.	.	8r	.	.	.
8C/	.	8c\	.	4r	.	4r	.	.	.
8C/J	.	8c\J	.	.	.	.	.	.	.
*Xtremolo	*	*	*	*	*	*	*	*	*
=80	=80	=80	=80	=80	=80	=80	=80	=80	=80
!	!	!	!	!	!LO:DY:a	!	!LO:DY:a	!	!
8D/	.	8d\L	.	8g/L	p	8b-\L	p	1ryy	1ryy
8r	.	8d\	.	8b-/J	.	8dd\J	.	.	.
4r	.	8d\	.	4b-/	.	4dd\	.	.	.
.	.	8d\J	.	.	.	.	.	.	.
2r	.	8d\L	.	8g/L	.	8b-\L	.	.	.
.	.	8d\	.	8b-/J	.	8dd\J	.	.	.
.	.	8d\	.	4b-/	.	4dd\	.	.	.
.	.	8d\J	.	.	.	.	.	.	.
!	!	!	!	!	!	!LO:LB:g=original	!	!	!
=81	=81	=81	=81	=81	=81	=81	=81	=81	=81
!LO:TX:a:t=1	!	!	!	!	!	!	!	!	!
1r	.	8d\L	.	8g/L	.	8b-\L	.	1ryy	1ryy
.	.	8d\	.	8a/	.	8cc\	.	.	.
.	.	8d\	.	8b-/	.	8dd\	.	.	.
.	.	8d\J	.	8cc/J	.	8een\J	.	.	.
.	.	8d\L	.	8dd\L	.	8ff#X\L	.	.	.
.	.	8d\	.	8een\	.	8gg\	.	.	.
.	.	8d\	.	8ff#X\	.	8aa\	.	.	.
.	.	8d\J	.	8gg\J	.	8bb-\J	.	.	.
=82	=82	=82	=82	=82	=82	=82	=82	=82	=82
8D/	.	8d\L	.	8f#X/L	.	8a/L	.	1ryy	1ryy
8r	.	8d\	.	8a/J	.	8cc/J	.	.	.
4r	.	8d\	.	4a/	.	4cc/	.	.	.
.	.	8d\J	.	.	.	.	.	.	.
!	!	!	!	!LO:LB:g=original	!	!	!	!	!
2r	.	8d\L	.	8f#/L	.	8a/L	.	.	.
.	.	8d\	.	8a/J	.	8cc/J	.	.	.
.	.	8d\	.	4a/	.	4cc/	.	.	.
.	.	8d\J	.	.	.	.	.	.	.
=83	=83	=83	=83	=83	=83	=83	=83	=83	=83
1r	.	8d\L	.	8f#X/L	.	8a/L	.	1ryy	1ryy
.	.	8d\	.	8g/	.	8b-/	.	.	.
.	.	8d\	.	8a/	.	8cc/	.	.	.
.	.	8d\J	.	8b-/J	.	8dd/J	.	.	.
.	.	8d\L	.	8cc\L	.	8een\L	.	.	.
.	.	8d\	.	8dd\	.	8ff#X\	.	.	.
!	!	!	!	!LO:TX:a:t=P:problem=♮ above	!	!	!	!	!
.	.	8d\	.	8een\	.	8gg\	.	.	.
!	!	!	!	!LO:TX:a:t=P:problem=# below	!	!	!	!	!
.	.	8d\J	.	8ff#X\J	.	8aa\J	.	.	.
=84	=84	=84	=84	=84	=84	=84	=84	=84	=84
!	!	!	!	!	!	!	!LO:DY:a	!	!
8G\L	.	8G/L	.	4G/ 4d/ 4b-/ 4gg/	.	4G/ 4d/ 4dd/ 4bb-/	f	1ryy	1ryy
8G\	.	8G/	.	.	.	.	.	.	.
.	.	.	.	8qqcc/	.	8qqaa/	.	.	.
8G\	.	8G/	.	16b-/LL	.	16gg\LL	.	.	.
.	.	.	.	16a/	.	16ff#X\	.	.	.
8G\J	.	8G/J	.	16b-/	.	16gg\	.	.	.
.	.	.	.	16cc/JJ	.	16aa\JJ	.	.	.
*tremolo	*	*	*	*	*	*	*	*	*
8BB-/L	.	8B-/L	.	8b-/	.	8gg\	.	.	.
8BB-/	.	8B-/	.	8r	.	8r	.	.	.
.	.	.	.	8qqcc/	.	8qqaa/	.	.	.
8BB-/	.	8B-/	.	16b-/LL	.	16gg\LL	.	.	.
.	.	.	.	16a/	.	16ff#X\	.	.	.
8BB-/J	.	8B-/J	.	16b-/	.	16gg\	.	.	.
.	.	.	.	16cc/JJ	.	16aa\JJ	.	.	.
=85	=85	=85	=85	=85	=85	=85	=85	=85	=85
8C/L	.	8c\L	.	8b-/	.	8gg\	.	1ryy	1ryy
8C/	.	8c\	.	8r	.	8r	.	.	.
.	.	.	.	8qqcc/	.	8qqaa/	.	.	.
8C/	.	8c\	.	16b-/LL	.	16gg\LL	.	.	.
.	.	.	.	16a/	.	16ff#X\	.	.	.
8C/J	.	8c\J	.	16b-/	.	16gg\	.	.	.
.	.	.	.	16cc/JJ	.	16aa\JJ	.	.	.
8D/L	.	8d\L	.	8b-/	.	8gg\	.	.	.
8D/	.	8d\	.	8r	.	8r	.	.	.
.	.	.	.	8qqcc/	.	8qqaa/	.	.	.
8D/	.	8d\	.	16b-/LL	.	16gg\LL	.	.	.
.	.	.	.	16a/	.	16ff#\	.	.	.
8D/J	.	8d\J	.	16b-/	.	16gg\	.	.	.
.	.	.	.	16cc/JJ	.	16aa\JJ	.	.	.
*Xtremolo	*	*Xtremolo	*	*	*	*	*	*	*
=86	=86	=86	=86	=86	=86	=86	=86	=86	=86
!!mixed beam:problem
!	!	!	!	!	!	!LO:TX:t=P:problem=mixed beam	!	!	!
8E-\L	.	8e-\L	.	8b-/L	.	8gg\L	.	1ryy	1ryy
8E-\	.	8e-\	.	8g/J	.	8g/J	.	.	.
.	.	.	.	8qqdd/	.	8qqff/	.	.	.
8C\	.	8c\	.	8cc\L	.	8ee-\L	.	.	.
8C\J	.	8c\J	.	16b-\L	.	16dd\L	.	.	.
.	.	.	.	16a\JJ	.	16cc\JJ	.	.	.
*tremolo	*	*tremolo	*	*	*	*	*	*	*
8D/L	.	8d\L	.	4g/	.	4b-/	.	.	.
8D/	.	8d\	.	.	.	.	.	.	.
8D/	.	8d\	.	4f#X/	.	4at>/	.	.	.
8D/J	.	8d\J	.	.	.	.	.	.	.
!	!	!	!	!	!	!LO:LB:g=original	!	!	!
=87	=87	=87	=87	=87	=87	=87	=87	=87	=87
!	!	!	!LO:DY:a	!LO:SIC:v:s:t=8g/	!	!	!	!	!
8GG/L	.	8G/L	p	8f/	.	8g/	.	1ryy	1ryy
8GG/	.	8G/	.	8r	.	8r	.	.	.
.	.	.	.	.	.	8qqaa/	p	.	.
8GG/	.	8G/	.	16g/LL	.	16gg\LL	.	.	.
.	.	.	.	16a/	.	16ff#X\	.	.	.
8GG/J	.	8G/J	.	16b-/	.	16gg\	.	.	.
.	.	.	.	16cc/JJ	.	16aa\JJ	.	.	.
8BB-/L	.	8B-/L	.	8b-/	.	8gg\	.	.	.
8BB-/	.	8B-/	.	8r	.	8r	.	.	.
!	!	!	!	!LO:LB:g=original	!	!	!	!	!
.	.	.	.	8qqcc/	.	8qqaa/	.	.	.
8BB-/	.	8B-/	.	16b-/LL	.	16gg\LL	.	.	.
.	.	.	.	16a/	.	16ff#\	.	.	.
8BB-/J	.	8B-/J	.	16b-/	.	16gg\	.	.	.
.	.	.	.	16cc/JJ	.	16aa\JJ	.	.	.
=88	=88	=88	=88	=88	=88	=88	=88	=88	=88
8C/L	.	8c\L	.	8b-/	.	8gg\	.	1ryy	1ryy
8C/	.	8c\	.	8r	.	8r	.	.	.
.	.	.	.	16qqcc\	.	.	.	.	.
8C/	.	8c\	.	16b-/LL	.	16gg\LL	.	.	.
.	.	.	.	16a/	.	16ff#X\	.	.	.
8C/J	.	8c\J	.	16b-/	.	16gg\	.	.	.
.	.	.	.	16cc/JJ	.	16aa\JJ	.	.	.
8D/L	.	8d\L	.	8b-/	.	8gg\	.	.	.
8D/	.	8d\	.	8r	.	8r	.	.	.
.	.	.	.	8qqcc/	.	.	.	.	.
8D/	.	8d\	.	16b-/LL	.	16gg\LL	.	.	.
.	.	.	.	16a/	.	16ff#X\	.	.	.
8D/J	.	8d\J	.	16b-/	.	16gg\	.	.	.
.	.	.	.	16cc/JJ	.	16aa\JJ	.	.	.
*Xtremolo	*	*Xtremolo	*	*	*	*	*	*	*
!	!	!LO:LB:g=original	!	!	!	!	!	!	!
=89	=89	=89	=89	=89	=89	=89	=89	=89	=89
8E-/L	.	8e-\L	.	16b-/LL	.	16gg\LL	.	1ryy	1ryy
.	.	.	.	16b-/	.	16gg\	.	.	.
8E-/	.	8e-\J	.	16b-/	.	16gg\	.	.	.
.	.	.	.	16b-/JJ	.	16gg\JJ	.	.	.
*	*	*	*	*tremolo	*	*tremolo	*	*	*
8C/	.	8B-/L	.	16g/LL	.	16dd\LL	.	.	.
.	.	.	.	16g/	.	16dd\	.	.	.
8C/J	.	8B-/J	.	16g/	.	16dd\	.	.	.
.	.	.	.	16g/JJ	.	16dd\JJ	.	.	.
8D/L	.	8c\L	.	16g/LL	.	16ee-\LL	.	.	.
.	.	.	.	16g/	.	16ee-\	.	.	.
8D/	.	8c\J	.	16g/	.	16ee-\	.	.	.
.	.	.	.	16g/	.	16ee-\JJ	.	.	.
8E-/	.	8e-\L	.	16g/	.	16cc\LL	.	.	.
.	.	.	.	16g/	.	16cc\	.	.	.
8E-/J	.	8e-\J	.	16g/	.	16cc\	.	.	.
.	.	.	.	16g/JJ	.	16cc\JJ	.	.	.
=90	=90	=90	=90	=90	=90	=90	=90	=90	=90
*	*	*tremolo	*	*	*	*	*	*	*
8D/L	.	8d\L	.	16g/LL	.	16b-/LL	f	1ryy	1ryy
.	.	.	.	16g/	.	16b-/	.	.	.
8D/	.	8d\	.	16g/	.	16b-/	.	.	.
.	.	.	.	16g/	.	16b-/	.	.	.
8D/	.	8d\	.	16g/	.	16b-/	.	.	.
.	.	.	.	16g/	.	16b-/	.	.	.
8D/J	.	8d\J	.	16g/	.	16b-/	.	.	.
.	.	.	.	16g/JJ	.	16b-/JJ	.	.	.
*tremolo	*	*	*	*	*	*	*	*	*
8D/L	.	8d\L	.	16f#X/LL	.	16a/LL	.	.	.
.	.	.	.	16f#X/	.	16a/	.	.	.
8D/	.	8d\	.	16f#X/	.	16a/	.	.	.
.	.	.	.	16f#X/	.	16a/	.	.	.
8D/	.	8d\	.	16f#X/	.	16a/	.	.	.
.	.	.	.	16f#X/	.	16a/	.	.	.
8D/J	.	8d\J	.	16f#X/	.	16a/	.	.	.
.	.	.	.	16f#X/JJ	.	16a/JJ	.	.	.
*Xtremolo	*	*	*	*Xtremolo	*	*Xtremolo	*	*	*
!LO:LB:g=original	!	!	!	!	!	!	!	!	!
=91	=91	=91	=91	=91	=91	=91	=91	=91	=91
8G\L	.	8g\L	.	4g/	.	4g/	.	1ryy	1ryy
8G\	.	8g\	.	.	.	.	.	.	.
8G\	.	8g\	.	4G/ 4d/ 4b-/ 4gg/	.	4G/ 4d/ 4b-/ 4gg/	.	.	.
8G\J	.	8g\J	.	.	.	.	.	.	.
*	*	*Xtremolo	*	*	*	*	*	*	*
4G\	.	4G/	.	4G/ 4d/ 4b-/ 4gg/	.	4G/ 4d/ 4b-/ 4gg/	.	.	.
4r	.	4r	.	4r	.	4r	.	.	.
=92	=92	=92	=92	=92	=92	=92	=92	=92	=92
!	!	!	!	!	!	!	!LO:DY:a	!	!
0r	.	4r	.	4r	.	[<1b-	p	1ryy	1ryy
.	.	4g\	.	4b-/	.	.	.	.	.
.	.	4f\	.	4a-X/	.	.	.	.	.
.	.	4e-\	.	4g/	.	.	.	.	.
=93-	=93	=93	=93	=93	=93	=93	=93	=93	=93
.	.	4d\	.	4f/	.	1b-_<	.	1ryy	1ryy
.	.	4c\	.	4e-/	.	.	.	.	.
.	.	4B-\	.	4d/	.	.	.	.	.
.	.	4A-X\	.	4c/	.	.	.	.	.
!	!	!	!	!LO:LB:g=original	!	!	!	!	!
=94-	=94	=94	=94	=94	=94	=94	=94	=94	=94
*	*	*tremolo	*	*	*	*	*	*	*
!	!	!	!	!LO:TX:b:t=B	!	!	!	!	!
1r	.	8G/L	.	1B-	.	4b-\]	.	1ryy	1ryy
.	.	8G/	.	.	.	.	.	.	.
.	.	8G/	.	.	.	16gg\KL	.	.	.
.	.	.	.	.	.	8.aa-X\J	.	.	.
.	.	8G/J	.	.	.	.	.	.	.
.	.	8F/L	.	.	.	8aa-\	.	.	.
.	.	8F/	.	.	.	8r	.	.	.
.	.	8F/	.	.	.	8a-X/	.	.	.
.	.	8F/J	.	.	.	8r	.	.	.
*	*	*Xtremolo	*	*	*	*	*	*	*
!	!	!	!	!	!	!LO:LB:g=original	!	!	!
=95	=95	=95	=95	=95	=95	=95	=95	=95	=95
4E-\	.	4e-\	.	4B-/	.	16g/KL	.	1ryy	1ryy
.	.	.	.	.	.	8.b-/J	.	.	.
8E-\L	.	4r	.	8g/L	.	8b-/	.	.	.
8F\J	.	.	.	8a-X/J	.	8r	.	.	.
8E-/L	.	2r	.	8g/L	.	2r	.	.	.
8D/	.	.	.	8f/	.	.	.	.	.
8C/	.	.	.	8e-/	.	.	.	.	.
8BBn/J	.	.	.	8d/J	.	.	.	.	.
=96	=96	=96	=96	=96	=96	=96	=96	=96	=96
4C/	.	4r	.	4c/	.	1cc	.	1ryy	1ryy
4r	.	4a\	.	4cc\	.	.	.	.	.
2r	.	4g\	.	4b-\	.	.	.	.	.
.	.	4f\	.	4an\	.	.	.	.	.
=97	=97	=97	=97	=97	=97	=97	=97	=97	=97
0r	.	4en\	.	4g/	.	1cc	.	1ryy	1ryy
.	.	4d\	.	4f/	.	.	.	.	.
.	.	4c\	.	4en/	.	.	.	.	.
.	.	4B-\	.	4d/	.	.	.	.	.
=98-	=98-	=98	=98	=98	=98	=98	=98	=98	=98
.	.	2A/	.	2.c/	.	4cc\	.	1ryy	1ryy
.	.	.	.	.	.	16aa\KL	.	.	.
.	.	.	.	.	.	8.bb-\J	.	.	.
.	.	2G/	.	.	.	8bb-\	.	.	.
.	.	.	.	.	.	8r	.	.	.
.	.	.	.	4en/	.	8b-/	.	.	.
.	.	.	.	.	.	8r	.	.	.
!	!	!LO:LB:g=original	!	!	!	!	!	!	!
=99	=99	=99	=99	=99	=99	=99	=99	=99	=99
!	!	!LO:TX:t=P:problem=brakujący takt	!	!	!	!	!	!	!
8F\	.	1ryy	.	[<1f	.	16a/KL	.	1ryy	1ryy
.	.	.	.	.	.	8.cc/J	.	.	.
!LO:N:vis=4	!	!	!	!	!	!	!	!	!
8r	.	.	.	.	.	.	.	.	.
4r	.	.	.	.	.	8cc/	.	.	.
.	.	.	.	.	.	8r	.	.	.
8F\	.	.	.	.	.	4r	.	.	.
8r	.	.	.	.	.	.	.	.	.
4r	.	.	.	.	.	(>4ff\	.	.	.
=100	=100	=100	=100	=100	=100	=100	=100	=100	=100
!!mixed beam:problem
!	!	!	!	!	!	!LO:TX:t=P:problem=mixed beam	!	!	!
8F\	.	2B-/	.	2f/]	.	8gg\L)	.	1ryy	1ryy
8r	.	.	.	.	.	8g/J	.	.	.
4r	.	.	.	.	.	4g/	.	.	.
8F\	.	2c/	.	2e-/	.	4r	.	.	.
8r	.	.	.	.	.	.	.	.	.
4r	.	.	.	.	.	4gg\	.	.	.
=101	=101	=101	=101	=101	=101	=101	=101	=101	=101
!!mixed beam:problem
!	!	!	!	!	!	!LO:TX:t=P:problem=mixed beam	!	!	!
8F\	.	2A/	.	2e-/	.	8ff\L	.	1ryy	1ryy
8r	.	.	.	.	.	8f/J	.	.	.
4r	.	.	.	.	.	4f/	.	.	.
8F\	.	2B-/	.	2d/	.	4r	.	.	.
8r	.	.	.	.	.	.	.	.	.
4r	.	.	.	.	.	4ff\	.	.	.
=102	=102	=102	=102	=102	=102	=102	=102	=102	=102
!LO:SIC:v:s:t=8G\	!	!	!	!	!	!	!	!	!
8F\	.	4G/	.	4B-/	.	4.ee-\	.	1ryy	1ryy
8r	.	.	.	.	.	.	.	.	.
4r	.	4A/	.	4c/	.	.	.	.	.
.	.	.	.	.	.	16ff\LL	.	.	.
.	.	.	.	.	.	16ee-\JJ	.	.	.
8F\	.	4B-/	.	4d/	.	4dd\	.	.	.
8r	.	.	.	.	.	.	.	.	.
4r	.	4G/	.	4en/	.	4bb-\	.	.	.
=103	=103	=103	=103	=103	=103	=103	=103	=103	=103
8F\	.	2F/	.	1f	.	32aa\LLL	.	1ryy	1ryy
.	.	.	.	.	.	32gg\JJ	.	.	.
.	.	.	.	.	.	8.ff\J	.	.	.
8r	.	.	.	.	.	.	.	.	.
4r	.	.	.	.	.	4ff\	.	.	.
8F\	.	2A/	.	.	.	4r	.	.	.
8r	.	.	.	.	.	.	.	.	.
4r	.	.	.	.	.	4ff\	.	.	.
!	!	!	!	!	!	!LO:LB:g=original	!	!	!
=104	=104	=104	=104	=104	=104	=104	=104	=104	=104
!!mixed beam:problem
!	!	!	!	!	!	!LO:TX:t=P:problem=mixed beam	!	!	!
8F\	.	2B-/	.	2f/	.	8gg\L	.	1ryy	1ryy
8r	.	.	.	.	.	8g/J	.	.	.
4r	.	.	.	.	.	4g/	.	.	.
8F\	.	2c/	.	2e-/	.	4r	.	.	.
8r	.	.	.	.	.	.	.	.	.
4r	.	.	.	.	.	4gg\	.	.	.
!LO:LB:g=original	!	!	!	!LO:PB:g=original	!	!	!	!	!
=105	=105	=105	=105	=105	=105	=105	=105	=105	=105
!!mixed beam:problem
!	!	!	!	!	!	!LO:TX:t=P:problem=mixed beam	!	!	!
8F\	.	2A/	.	2e-/	.	8ff\L	.	1ryy	1ryy
8r	.	.	.	.	.	8f/J	.	.	.
4r	.	.	.	.	.	4f/	.	.	.
8F\	.	2B-/	.	2d/	.	4r	.	.	.
8r	.	.	.	.	.	.	.	.	.
4r	.	.	.	.	.	4ff\	.	.	.
=106	=106	=106	=106	=106	=106	=106	=106	=106	=106
!LO:SIC:v:s:t=8G\	!	!	!	!	!	!	!	!	!
8F\	.	4G/	.	4B-/	.	4.ee-\	.	1ryy	1ryy
8r	.	.	.	.	.	.	.	.	.
4r	.	4A/	.	4c/	.	.	.	.	.
.	.	.	.	.	.	16ff\LL	.	.	.
.	.	.	.	.	.	16ee-\JJ	.	.	.
8F\	.	4B-/	.	4d/	.	4dd\	.	.	.
8r	.	.	.	.	.	.	.	.	.
4r	.	4G/	.	4en/	.	4bb-\	.	.	.
=107	=107	=107	=107	=107	=107	=107	=107	=107	=107
*	*	*	*	*^	*	*	*	*	*
!	!	!LO:TX:t=P:problem=nie zapisano 11 taktów	!	!	!	!LO:DY:a	!	!	!	!
8F\L	.	1ryy	.	16f/LL	2.ryy	f	16aa\LL	.	1ryy	1ryy
.	.	.	.	16f/	.	.	16aa\	.	.	.
8F\	.	.	.	16f/	.	.	16aa\	.	.	.
.	.	.	.	16f/JJ	.	.	16aa\JJ	.	.	.
*	*	*	*	*	*	*	*tremolo	*	*	*
8F\	.	.	.	16a/LL	.	.	16cc\LL	.	.	.
.	.	.	.	16a/	.	.	16cc\	.	.	.
8F\J	.	.	.	16a/	.	.	16cc\	.	.	.
.	.	.	.	16a/JJ	.	.	16cc\JJ	.	.	.
*tremolo	*	*	*	*	*	*	*	*	*	*
8F\L	.	.	.	16b-/LL	.	.	16dd\LL	.	.	.
.	.	.	.	16b-/	.	.	16dd\	.	.	.
8F\	.	.	.	16b-/	.	.	16dd\	.	.	.
.	.	.	.	16b-/JJ	.	.	16dd\JJ	.	.	.
8F\	.	.	.	16b-/LL	16g\LL	.	16een\LL	.	.	.
.	.	.	.	16b-/	16g\	.	16een\	.	.	.
8F\J	.	.	.	16b-/	16g\	.	16een\	.	.	.
.	.	.	.	16b-/JJ	16g\JJ	.	16een\JJ	.	.	.
=108	=108	=108	=108	=108	=108	=108	=108	=108	=108	=108
8F\L	.	1ryy	.	16a/LL	2.ryy	.	16ff\LL	.	1ryy	1ryy
.	.	.	.	16a/	.	.	16ff\	.	.	.
8F\	.	.	.	16a/	.	.	16ff\	.	.	.
.	.	.	.	16a/JJ	.	.	16ff\JJ	.	.	.
8F\	.	.	.	16a/LL	.	.	16cc\LL	.	.	.
.	.	.	.	16a/	.	.	16cc\	.	.	.
8F\J	.	.	.	16a/	.	.	16cc\	.	.	.
.	.	.	.	16a/JJ	.	.	16cc\JJ	.	.	.
8F\L	.	.	.	16b-/LL	.	.	16dd\LL	.	.	.
.	.	.	.	16b-/	.	.	16dd\	.	.	.
8F\	.	.	.	16b-/	.	.	16dd\	.	.	.
.	.	.	.	16b-/JJ	.	.	16dd\JJ	.	.	.
8F\	.	.	.	16b-/LL	16g\LL	.	16een\LL	.	.	.
.	.	.	.	16b-/	16g\	.	16een\	.	.	.
8F\J	.	.	.	16b-/	16g\	.	16een\	.	.	.
.	.	.	.	16b-/JJ	16g\JJ	.	16een\JJ	.	.	.
*	*	*	*	*	*	*	*Xtremolo	*	*	*
=109	=109	=109	=109	=109	=109	=109	=109	=109	=109	=109
*	*	*	*	*	*	*	*^	*	*	*
8F\L	.	1ryy	.	4a/	4ryy	.	4ff/	4a\	.	1ryy	1ryy
8F\	.	.	.	.	.	.	.	.	.	.	.
8F\	.	.	.	8.a/L	8.f\L	.	8.a/L 8.ff/	2.ryy	.	.	.
8F\J	.	.	.	.	.	.	.	.	.	.	.
.	.	.	.	16a/Jk	16f\Jk	.	16a/Jk 16ff/	.	.	.	.
*Xtremolo	*	*	*	*	*	*	*	*	*	*	*
8F\L	.	.	.	4a/	4f\	.	4a/ 4ff/	.	.	.	.
8E-\	.	.	.	.	.	.	.	.	.	.	.
8D\	.	.	.	4r	4ryy	.	4r	.	.	.	.
8C\J	.	.	.	.	.	.	.	.	.	.	.
*	*	*	*	*v	*v	*	*	*	*	*	*
*	*	*	*	*	*	*v	*v	*	*	*
=110	=110	=110	=110	=110	=110	=110	=110	=110	=110
!	!	!	!	!	!LO:DY:a	!	!LO:DY:a	!	!
1BB-	.	1ryy	.	1B- 1d 1b-	f	1G 1d 1b-	f	1ryy	1ryy
!	!	!	!	!	!	!LO:PB:g=original	!	!	!
=111	=111	=111	=111	=111	=111	=111	=111	=111	=111
!	!	!	!	!	!LO:DY:a:t=p.	!	!	!	!
0r	.	1ryy	.	8B-/	p	8d/	.	1ryy	1ryy
.	.	.	.	8r	.	8r	.	.	.
.	.	.	.	8c/	.	8e-/	.	.	.
.	.	.	.	8r	.	8r	.	.	.
.	.	.	.	8d/	.	8f/	.	.	.
.	.	.	.	8r	.	8r	.	.	.
.	.	.	.	8e-/	.	8r	.	.	.
.	.	.	.	8r	.	8f/	.	.	.
!	!	!	!	!LO:LB:g=original	!	!	!	!	!
=112-	=112	=112	=112	=112	=112	=112	=112	=112	=112
.	.	1ryy	.	8e-/	.	8g/	.	1ryy	1ryy
.	.	.	.	8r	.	8r	.	.	.
.	.	.	.	8c/	.	8a/	.	.	.
.	.	.	.	8r	.	8r	.	.	.
.	.	.	.	8d/	.	8b-/	.	.	.
.	.	.	.	8r	.	8rg	.	.	.
.	.	.	.	16g/KL	.	16ee-\KL	.	.	.
.	.	.	.	8.e-/J	.	8.cc\J	.	.	.
=113-	=113	=113	=113	=113	=113	=113	=113	=113	=113
1r	.	1ryy	.	8f/	.	8dd\	.	1ryy	1ryy
.	.	.	.	8r	.	8r	.	.	.
.	.	.	.	16g/KL	.	16ee-\KL	.	.	.
.	.	.	.	8.e-/J	.	8.cc\J	.	.	.
.	.	.	.	8f/	.	8dd\	.	.	.
.	.	.	.	8r	.	8r	.	.	.
.	.	.	.	16g/KL	.	16ee-\KL	.	.	.
.	.	.	.	8.e-/J	.	8.cc\J	.	.	.
=114	=114	=114	=114	=114	=114	=114	=114	=114	=114
!	!	!	!	!LO:TX:a:t=P:problem=repetycja 4 taktów	!LO:DY:a	!LO:TX:a:t=P:problem=repetycja 4 taktów	!LO:DY:a	!	!
1BB-	.	1ryy	.	1B-yy 1dyy 1b-yy	fy	1Gyy 1dyy 1b-yy	fy	1ryy	1ryy
=115	=115	=115	=115	=115	=115	=115	=115	=115	=115
!	!	!	!	!	!LO:DY:a	!LO:TX:a:t=P:problem=skan nr 0005	!	!	!
0r	.	1ryy	.	8B-/yy	py	8d/yy	.	1ryy	1ryy
.	.	.	.	8ryy	.	8ryy	.	.	.
.	.	.	.	8c/yy	.	8e-/yy	.	.	.
.	.	.	.	8ryy	.	8ryy	.	.	.
.	.	.	.	8d/yy	.	8f/yy	.	.	.
.	.	.	.	8ryy	.	8ryy	.	.	.
.	.	.	.	8e-/yy	.	8ryy	.	.	.
.	.	.	.	8ryy	.	8f/yy	.	.	.
=116-	=116	=116	=116	=116	=116	=116	=116	=116	=116
.	.	1ryy	.	8e-/yy	.	8g/yy	.	1ryy	1ryy
.	.	.	.	8ryy	.	8ryy	.	.	.
.	.	.	.	8c/yy	.	8a/yy	.	.	.
.	.	.	.	8ryy	.	8ryy	.	.	.
.	.	.	.	8d/yy	.	8b-/yy	.	.	.
.	.	.	.	8ryy	.	8rgyy	.	.	.
.	.	.	.	16g/KLyy	.	16ee-\KLyy	.	.	.
.	.	.	.	8.e-/Jyy	.	8.cc\Jyy	.	.	.
=117-	=117	=117	=117	=117	=117	=117	=117	=117	=117
1r	.	1ryy	.	8f/yy	.	8dd\yy	.	1ryy	1ryy
.	.	.	.	8ryy	.	8ryy	.	.	.
.	.	.	.	16g/KLyy	.	16ee-\KLyy	.	.	.
.	.	.	.	8.e-/Jyy	.	8.cc\Jyy	.	.	.
.	.	.	.	8f/yy	.	8dd\yy	.	.	.
.	.	.	.	8ryy	.	8ryy	.	.	.
.	.	.	.	16g/KLyy	.	16ee-\KLyy	.	.	.
.	.	.	.	8.e-/Jyy	.	8.cc\Jyy	.	.	.
=118	=118	=118	=118	=118	=118	=118	=118	=118	=118
*	*	*tremolo	*	*	*	*	*	*	*
!!mixed beam:problem
!	!	!	!	!LO:TX:t=P:problem=mixed beam	!	!	!	!	!
8BB-/L	.	8B-/L	f	16d/LL	.	16ff\LL	.	1ryy	1ryy
.	.	.	.	16b-/	.	16ff\	.	.	.
8BB-/	.	8d/	.	16b-/	.	16ff\	.	.	.
.	.	.	.	16b-/JJ	.	16ff\JJ	.	.	.
*	*	*	*	*	*	*tremolo	*	*	*
8BB-/	.	8d\	.	16b-\LL	.	16ff\LL	.	.	.
.	.	.	.	16b-\	.	16ff\	.	.	.
8BB-/J	.	8d\J	.	16b-\	.	16ff\	.	.	.
.	.	.	.	16b-\JJ	.	16ff\JJ	.	.	.
*tremolo	*	*	*	*	*	*	*	*	*
8BB-/L	.	8d\L	.	16b-\LL	.	16ff\LL	.	.	.
.	.	.	.	16b-\	.	16ff\	.	.	.
8BB-/	.	8d\	.	16b-\	.	16ff\	.	.	.
.	.	.	.	16b-\JJ	.	16ff\	.	.	.
8BB-/	.	8d\	.	16b-\LL	.	16ff\	.	.	.
.	.	.	.	16b-\	.	16ff\	.	.	.
8BB-/J	.	8d\J	.	16b-\	.	16ff\	.	.	.
.	.	.	.	16b-\JJ	.	16ff\JJ	.	.	.
=119	=119	=119	=119	=119	=119	=119	=119	=119	=119
8BB-/L	.	8e-\L	.	16b-\LL	.	16gg\LL	.	1ryy	1ryy
.	.	.	.	16b-\	.	16gg\	.	.	.
8BB-/	.	8e-\	.	16b-\	.	16gg\	.	.	.
.	.	.	.	16b-\JJ	.	16gg\	.	.	.
8BB-/	.	8e-\	.	16b-\LL	.	16gg\	.	.	.
.	.	.	.	16b-\	.	16gg\	.	.	.
8BB-/J	.	8e-\J	.	16b-\	.	16gg\	.	.	.
.	.	.	.	16b-\JJ	.	16gg\JJ	.	.	.
*	*	*	*	*tremolo	*	*	*	*	*
8BB-/L	.	8c\L	.	16ee-\LL	.	16aa\LL	.	.	.
.	.	.	.	16ee-\	.	16aa\	.	.	.
8BB-/	.	8c\	.	16ee-\	.	16aa\	.	.	.
.	.	.	.	16ee-\	.	16aa\	.	.	.
8BB-/	.	8c\	.	16ee-\	.	16aa\	.	.	.
.	.	.	.	16ee-\	.	16aa\	.	.	.
8BB-/J	.	8c\J	.	16ee-\	.	16aa\	.	.	.
.	.	.	.	16ee-\JJ	.	16aa\JJ	.	.	.
*	*	*Xtremolo	*	*	*	*	*	*	*
=120	=120	=120	=120	=120	=120	=120	=120	=120	=120
8BB-/L	.	8B-/L	.	16dd\LL	.	16bb-\LL	.	1ryy	1ryy
.	.	.	.	16dd\	.	16bb-\	.	.	.
8BB-/	.	8B-/	.	16dd\	.	16bb-\	.	.	.
.	.	.	.	16dd\JJ	.	16bb-\JJ	.	.	.
8BB-/	.	8d/	.	16b-\LL	.	16ff\LL	.	.	.
.	.	.	.	16b-\	.	16ff\	.	.	.
8BB-/J	.	8d/J	.	16b-\	.	16ff\	.	.	.
.	.	.	.	16b-\JJ	.	16ff\JJ	.	.	.
8BB-/L	.	8e-\L	.	16b-\LL	.	16gg\LL	.	.	.
.	.	.	.	16b-\	.	16gg\	.	.	.
8BB-/	.	8e-\	.	16b-\	.	16gg\	.	.	.
.	.	.	.	16b-\JJ	.	16gg\JJ	.	.	.
8BB-/	.	8c\	.	16ee-\LL	.	16aa\LL	.	.	.
.	.	.	.	16ee-\	.	16aa\	.	.	.
8BB-/J	.	8c\J	.	16ee-\	.	16aa\	.	.	.
.	.	.	.	16ee-\JJ	.	16aa\JJ	.	.	.
=121	=121	=121	=121	=121	=121	=121	=121	=121	=121
!	!	!LO:TX:a:t=P:problem=repetycja taktu	!	!	!	!	!	!	!
8BB-/L	.	8B-\Lyy	.	16dd\LL	.	16bb-\LL	.	1ryy	1ryy
.	.	.	.	16dd\	.	16bb-\	.	.	.
8BB-/	.	8B-\yy	.	16dd\	.	16bb-\	.	.	.
.	.	.	.	16dd\JJ	.	16bb-\JJ	.	.	.
8BB-/	.	8d\yy	.	16b-\LL	.	16ff\LL	.	.	.
.	.	.	.	16b-\	.	16ff\	.	.	.
8BB-/J	.	8d\Jyy	.	16b-\	.	16ff\	.	.	.
.	.	.	.	16b-\JJ	.	16ff\JJ	.	.	.
8BB-/L	.	8e-\Lyy	.	16b-\LL	.	16gg\LL	.	.	.
.	.	.	.	16b-\	.	16gg\	.	.	.
8BB-/	.	8e-\yy	.	16b-\	.	16gg\	.	.	.
.	.	.	.	16b-\JJ	.	16gg\JJ	.	.	.
8BB-/	.	8c\yy	.	16ee-\LL	.	16aa\LL	.	.	.
.	.	.	.	16ee-\	.	16aa\	.	.	.
8BB-/J	.	8c\Jyy	.	16ee-\	.	16aa\	.	.	.
.	.	.	.	16ee-\JJ	.	16aa\JJ	.	.	.
*Xtremolo	*	*	*	*Xtremolo	*	*Xtremolo	*	*	*
!LO:LB:g=original	!	!LO:LB:g=original	!	!LO:LB:g=original	!	!LO:LB:g=original	!	!	!
=122	=122	=122	=122	=122	=122	=122	=122	=122	=122
4BB-/	.	4B-/	.	8dd\L	.	8bb-\L	.	1ryy	1ryy
.	.	.	.	16dd\L	.	(>16ff\L	.	.	.
.	.	.	.	16ee-\JJ	.	16gg\JJ)	.	.	.
4r	.	8r	.	8dd\L	.	8ff\L	.	.	.
.	.	4r	.	8ff\J	.	8bb-\J	.	.	.
8r	.	.	.	[>2dd\	.	[>2ff\	.	.	.
8F\L	.	8f\L	.	.	.	.	.	.	.
8D\	.	8d\	.	.	.	.	.	.	.
8BB-\J	.	8B-\J	.	.	.	.	.	.	.
=123	=123	=123	=123	=123	=123	=123	=123	=123	=123
2F\	.	1f	.	8dd\L]	.	8ff\L]	.	1ryy	1ryy
.	.	.	.	8ff\	.	8bb-\	.	.	.
.	.	.	.	8dd\	.	8ff\	.	.	.
.	.	.	.	8b-\J	.	8dd\J	.	.	.
2F\	.	.	.	8a/L	.	8cc\L	.	.	.
.	.	.	.	8b-/J	.	8dd\J	.	.	.
.	.	.	.	8qqdd/	.	8qqff/	.	.	.
.	.	.	.	(>8cc\L	.	8ee-\L	.	.	.
.	.	.	.	16b-\L)	.	16dd\L	.	.	.
.	.	.	.	16a\JJ	.	16cc\JJ	.	.	.
=124	=124	=124	=124	=124	=124	=124	=124	=124	=124
4BB-/	.	4f\	.	8b-\L	.	8dd\L	.	1ryy	1ryy
.	.	.	.	16dd\L	.	16ff\L	.	.	.
.	.	.	.	16ee-\JJ	.	16gg\JJ	.	.	.
4r	.	4r	.	8dd\L	.	8ff\L	.	.	.
.	.	.	.	8ff\J	.	8bb-\J	.	.	.
8r	.	8r	.	2dd\	.	[>2ff\	.	.	.
8F\L	.	8f\L	.	.	.	.	.	.	.
8D\	.	8d\	.	.	.	.	.	.	.
8BB-\J	.	8B-\J	.	.	.	.	.	.	.
=125	=125	=125	=125	=125	=125	=125	=125	=125	=125
1ryy	.	1f	.	8dd\L	.	8ff\L]	.	1ryy	1ryy
.	.	.	.	8ff\J	.	8bb-\	.	.	.
.	.	.	.	8dd\L	.	8ff\	.	.	.
.	.	.	.	8b-\J	.	8dd\J	.	.	.
.	.	.	.	8a\L	.	8cc\L	.	.	.
.	.	.	.	8b-\J	.	8dd\J	.	.	.
.	.	.	.	8qqdd/	.	8qqff/	.	.	.
.	.	.	.	8cc\L	.	8ee-\L	.	.	.
.	.	.	.	(>16b-\L	.	(>16dd\L	.	.	.
.	.	.	.	16a\JJ)	.	16cc\JJ)	.	.	.
=126	=126	=126	=126	=126	=126	=126	=126	=126	=126
*	*	*tremolo	*	*	*	*	*	*	*
!	!	!	!	!	!LO:DY:a:t=f.	!	!LO:DY:a	!	!
2F\	.	8d\L	.	16b-\LL	f	8b-\	f	1ryy	1ryy
.	.	.	.	16b-\	.	.	.	.	.
.	.	8d\	.	16b-\	.	8r	.	.	.
.	.	.	.	16b-\JJ	.	.	.	.	.
*	*	*	*	*tremolo	*	*	*	*	*
.	.	8d\	.	16b-\LL	.	(>16b-\LL	.	.	.
.	.	.	.	16b-\	.	16cc\	.	.	.
.	.	8d\J	.	16b-\	.	16dd\	.	.	.
.	.	.	.	16b-\JJ	.	16ee-\JJ)	.	.	.
2F\	.	8d\L	.	16b-\LL	.	8ff\	.	.	.
.	.	.	.	16b-\	.	.	.	.	.
.	.	8d\	.	16b-\	.	8r	.	.	.
.	.	.	.	16b-\	.	.	.	.	.
.	.	8d\	.	16b-\	.	(>16dd\LL	.	.	.
.	.	.	.	16b-\	.	16ee-\	.	.	.
.	.	8d\J	.	16b-\	.	16ff\)	.	.	.
.	.	.	.	16b-\JJ	.	16gg\JJ	.	.	.
=127	=127	=127	=127	=127	=127	=127	=127	=127	=127
8BB-/L	.	8f\L	.	16b-\LL	.	8aa-X\	.	1ryy	1ryy
.	.	.	.	16b-\	.	.	.	.	.
8BB-/	.	8f\	.	16b-\	.	8r	.	.	.
.	.	.	.	16b-\	.	.	.	.	.
8BB-/	.	8f\	.	16b-\	.	8ff\	.	.	.
.	.	.	.	16b-\	.	.	.	.	.
8BB-/J	.	8f\J	.	16b-\	.	8r	.	.	.
.	.	.	.	16b-\JJ	.	.	.	.	.
*tremolo	*	*	*	*	*	*	*	*	*
8BB-/L	.	8f\L	.	16b-\LL	.	8dd\	.	.	.
.	.	.	.	16b-\	.	.	.	.	.
8BB-/	.	8f\	.	16b-\	.	8r	.	.	.
.	.	.	.	16b-\	.	.	.	.	.
8BB-/	.	8f\	.	16b-\	.	8a-X/	.	.	.
.	.	.	.	16b-\	.	.	.	.	.
8BB-/J	.	8f\J	.	16b-\	.	8ryy	.	.	.
.	.	.	.	16b-\JJ	.	.	.	.	.
!	!	!	!	!	!	!LO:LB:g=original	!	!	!
=128	=128	=128	=128	=128	=128	=128	=128	=128	=128
!LO:SIC:v:s:t=8E-	!	!	!	!	!	!	!	!	!
8D\L	.	8e-\L	.	16b-\LL	.	8g/	.	1ryy	1ryy
.	.	.	.	16b-\	.	.	.	.	.
!LO:SIC:v:s:t=8E-	!	!	!	!	!	!	!	!	!
8D\	.	8e-\	.	16b-\	.	8r	.	.	.
.	.	.	.	16b-\	.	.	.	.	.
!LO:SIC:v:s:t=8E-	!	!	!	!	!	!	!	!	!
8D\	.	8e-\	.	16b-\	.	8bb-\	.	.	.
.	.	.	.	16b-\	.	.	.	.	.
!LO:SIC:v:s:t=8E-	!	!	!	!	!	!	!	!	!
8D\J	.	8e-\J	.	16b-\	.	8r	.	.	.
.	.	.	.	16b-\JJ	.	.	.	.	.
!LO:SIC:v:s:t=8E-	!	!	!	!	!	!	!	!	!
8D\L	.	8e-\L	.	16b-\LL	.	8gg\	.	.	.
.	.	.	.	16b-\	.	.	.	.	.
!LO:SIC:v:s:t=8E-	!	!	!	!	!	!	!	!	!
8D\	.	8e-\	.	16b-\	.	8r	.	.	.
.	.	.	.	16b-\	.	.	.	.	.
!LO:SIC:v:s:t=8E-	!	!	!	!	!	!	!	!	!
8D\	.	8e-\	.	16b-\	.	8bb-\	.	.	.
.	.	.	.	16b-\	.	.	.	.	.
!LO:SIC:v:s:t=8E-	!	!	!	!	!	!	!	!	!
8D\J	.	8e-\J	.	16b-\	.	8r	.	.	.
.	.	.	.	16b-\JJ	.	.	.	.	.
=129	=129	=129	=129	=129	=129	=129	=129	=129	=129
!	!	!LO:TX:a:t=P:problem=repetycja taktu	!	!	!	!	!	!	!
8E-\L	.	8e-\Lyy	.	16b-\LL	.	8ee-\	.	1ryy	1ryy
.	.	.	.	16b-\	.	.	.	.	.
8E-\	.	8e-\yy	.	16b-\	.	8r	.	.	.
.	.	.	.	16b-\	.	.	.	.	.
8E-\	.	8e-\yy	.	16b-\	.	8gg\	.	.	.
.	.	.	.	16b-\	.	.	.	.	.
8E-\J	.	8e-\Jyy	.	16b-\	.	8r	.	.	.
.	.	.	.	16b-\JJ	.	.	.	.	.
8E-\L	.	8e-\Lyy	.	16b-\LL	.	8cc\	.	.	.
.	.	.	.	16b-\	.	.	.	.	.
8E-\	.	8e-\yy	.	16b-\	.	8r	.	.	.
.	.	.	.	16b-\	.	.	.	.	.
8E-\	.	8e-\yy	.	16b-\	.	8ee-\	.	.	.
.	.	.	.	16b-\	.	.	.	.	.
8E-\J	.	8e-\Jyy	.	16b-\	.	8r	.	.	.
.	.	.	.	16b-\JJ	.	.	.	.	.
!	!	!	!	!LO:LB:g=original	!	!	!	!	!
=130	=130	=130	=130	=130	=130	=130	=130	=130	=130
*	*	*	*	*	*	*tremolo	*	*	*
!	!LO:DY:a	!	!LO:DY:a	!	!	!	!	!	!
8F\L	f	8f\L	f	16b-/LL	.	16dd\LL	.	1ryy	1ryy
.	.	.	.	16b-/	.	16dd\	.	.	.
8F\	.	8f\	.	16b-/	.	16dd\	.	.	.
.	.	.	.	16b-/	.	16dd\	.	.	.
8F\	.	8f\	.	16b-/	.	16dd\	.	.	.
.	.	.	.	16b-/	.	16dd\	.	.	.
8F\J	.	8f\J	.	16b-/	.	16dd\	.	.	.
.	.	.	.	16b-/JJ	.	16dd\JJ	.	.	.
8F\L	.	8f\L	.	16a/LL	.	16cc\LL	.	.	.
.	.	.	.	16a/	.	16cc\	.	.	.
8F\	.	8f\	.	16a/	.	16cc\	.	.	.
.	.	.	.	16a/	.	16cc\	.	.	.
8F\	.	8f\	.	16a/	.	16cc\	.	.	.
.	.	.	.	16a/	.	16cc\	.	.	.
8F\J	.	8f\J	.	16a/	.	16cc\	.	.	.
.	.	.	.	16a/JJ	.	16cc\JJ	.	.	.
*Xtremolo	*	*Xtremolo	*	*Xtremolo	*	*Xtremolo	*	*	*
=131	=131	=131	=131	=131	=131	=131	=131	=131	=131
!!mixed beam:problem
!LO:TX:t=P:problem=mixed beam	!	!	!	!	!	!	!	!	!
8BB-/L	.	4A/	.	4b-\	.	4b-/	.	1ryy	1ryy
8BB-/	.	.	.	.	.	.	.	.	.
!	!	!LO:N:vis=4	!	!	!	!	!	!	!
8BB-/	.	8r	.	4r	.	8r	.	.	.
8F\J	.	8r	.	.	.	8f/	.	.	.
8E-/L	.	2r	.	2r	.	8e-/L	.	.	.
8D/	.	.	.	.	.	8d/	.	.	.
8C/	.	.	.	.	.	8c/	.	.	.
8BB-/J	.	.	.	.	.	8B-/J	.	.	.
=132	=132	=132	=132	=132	=132	=132	=132	=132	=132
!	!	!	!	!	!LO:DY:a:t=p.	!	!	!	!
4F\	.	2e-\	.	4f/	p	4f/	.	1ryy	1ryy
4r	.	.	.	2f/	.	4r	.	.	.
4F\	.	8d\	.	.	.	2r	.	.	.
.	.	8r	.	.	.	.	.	.	.
4r	.	8B-/	.	4f/	.	.	.	.	.
.	.	8r	.	.	.	.	.	.	.
=133	=133	=133	=133	=133	=133	=133	=133	=133	=133
4F\	.	4.A/	.	4f/	.	2ee-\	.	1ryy	1ryy
4r	.	.	.	2f/	.	.	.	.	.
.	.	16B-/LL	.	.	.	.	.	.	.
.	.	16c/JJ	.	.	.	.	.	.	.
4F\	.	8B-/	.	.	.	8dd\	.	.	.
.	.	8r	.	.	.	8r	.	.	.
4r	.	4r	.	4f/	.	8b-/	.	.	.
.	.	.	.	.	.	8r	.	.	.
=134	=134	=134	=134	=134	=134	=134	=134	=134	=134
4F\	.	2e-\	.	4f/	.	4.a/	.	1ryy	1ryy
4r	.	.	.	2f/	.	.	.	.	.
.	.	.	.	.	.	16b-/LL	.	.	.
.	.	.	.	.	.	16cc/JJ	.	.	.
4F\	.	8d\	.	.	.	8b-/	.	.	.
.	.	8r	.	.	.	8r	.	.	.
4r	.	8B-/	.	4f/	.	4r	.	.	.
.	.	8r	.	.	.	.	.	.	.
!LO:LB:g=original	!	!	!	!	!	!	!	!	!
=135	=135	=135	=135	=135	=135	=135	=135	=135	=135
!	!	!	!	!	!	!LO:TX:a:t=P:problem=repetycja 2 taktów	!	!	!
4F\	.	4.A/	.	4f/	.	2ee-\yy	.	1ryy	1ryy
4r	.	.	.	2f/	.	.	.	.	.
.	.	8B-/	.	.	.	.	.	.	.
4F\	.	4c/	.	.	.	8dd\yy	.	.	.
.	.	.	.	.	.	8ryy	.	.	.
4r	.	4d/	.	4f/	.	8b-/yy	.	.	.
.	.	.	.	.	.	8ryy	.	.	.
!	!	!LO:LB:g=original	!	!	!	!	!	!	!
=136	=136	=136	=136	=136	=136	=136	=136	=136	=136
4F\	.	2e-\	.	4f/	.	4.a/yy	.	1ryy	1ryy
4r	.	.	.	2f/	.	.	.	.	.
.	.	.	.	.	.	16b-/LLyy	.	.	.
.	.	.	.	.	.	16cc/JJyy	.	.	.
4BB-/	.	4d\	.	.	.	8b-/yy	.	.	.
.	.	.	.	.	.	8ryy	.	.	.
4r	.	8r	.	4f/	.	4ryy	.	.	.
.	.	8B-/	.	.	.	.	.	.	.
=137	=137	=137	=137	=137	=137	=137	=137	=137	=137
*tremolo	*	*tremolo	*	*	*	*	*	*	*
!	!	!	!	!	!LO:DY:a:t=f.	!	!	!	!
8D\L	.	8f\L	.	4b-\	f	4b-/	.	1ryy	1ryy
8D\	.	8f\	.	.	.	.	.	.	.
.	.	.	.	8qqcc/	.	8qqcc/	.	.	.
8D\	.	8f\	.	16b-/LL	.	16b-/LL	.	.	.
.	.	.	.	16a/	.	16a/	.	.	.
8D\J	.	8f\J	.	16b-/	.	16b-/	.	.	.
.	.	.	.	16cc/JJ	.	16cc/JJ	.	.	.
8D\L	.	8b-\L	.	4b-\	.	4b-\	.	.	.
8D\	.	8b-\	.	.	.	.	.	.	.
8D\	.	8b-\	.	4aa-X\	.	4aa-X\	.	.	.
8D\J	.	8b-\J	.	.	.	.	.	.	.
!	!	!	!	!	!	!LO:LB:g=original	!	!	!
=138	=138	=138	=138	=138	=138	=138	=138	=138	=138
8E-\L	.	8b-\L	.	4ff#X\	.	4ff#X\	.	1ryy	1ryy
8E-\	.	8b-\	.	.	.	.	.	.	.
8E-\	.	8b-\	.	4gg\	.	4gg\	.	.	.
8E-\J	.	8b-\J	.	.	.	.	.	.	.
8E-\L	.	8e-\L	.	4r	.	4r	.	.	.
8E-\	.	8e-\	.	.	.	.	.	.	.
8E-\	.	8e-\	.	4ee-\	.	8gg\L	.	.	.
8E-\J	.	8e-\J	.	.	.	8aa\J	.	.	.
=139	=139	=139	=139	=139	=139	=139	=139	=139	=139
8F\L	.	8f\L	.	8dd\L	.	8bb-\L	.	1ryy	1ryy
8F\	.	8f\	.	8b-\J	.	8ff\J	.	.	.
8F\	.	8f\	.	4dd\	.	4ff\	.	.	.
8F\J	.	8f\J	.	.	.	.	.	.	.
8F\L	.	8f\L	.	4r	.	4r	.	.	.
8F\	.	8f\	.	.	.	.	.	.	.
8F\	.	8f\	.	4dd\	.	4ff\	.	.	.
8F\J	.	8f\J	.	.	.	.	.	.	.
!	!	!	!	!LO:LB:g=original	!	!	!	!	!
=140	=140	=140	=140	=140	=140	=140	=140	=140	=140
8F\L	.	8f\L	.	4.dd\	.	4.ff\	.	1ryy	1ryy
8F\	.	8f\	.	.	.	.	.	.	.
8F\	.	8f\	.	.	.	.	.	.	.
8F\J	.	8f\J	.	(>16ee-\LL	.	16gg\LL	.	.	.
.	.	.	.	16dd\JJ)	.	16ff\JJ	.	.	.
8F\L	.	8f\L	.	4cc\	.	4ee-\	.	.	.
8F\	.	8f\	.	.	.	.	.	.	.
8F\	.	8f\	.	4b-\	.	4dd\	.	.	.
8F\J	.	8f\J	.	.	.	.	.	.	.
=141	=141	=141	=141	=141	=141	=141	=141	=141	=141
8F\L	.	8f\L	.	(>8ee-\L	.	8aa\L	.	1ryy	1ryy
8F\	.	8f\	.	8cc\J)	.	8ee-\J	.	.	.
8F\	.	8f\	.	4cc\	.	4ee-\	.	.	.
8F\J	.	8f\J	.	.	.	.	.	.	.
!	!	!LO:TX:t=P:problem=brak oznaczenia powtórki połowy taktu	!	!	!	!	!	!	!
8F\L	.	8f\yyL	.	4r	.	4r	.	.	.
8F\	.	8f\yy	.	.	.	.	.	.	.
8F\	.	8f\yy	.	4cc\	.	4ee-\	.	.	.
8F\J	.	8f\yyJ	.	.	.	.	.	.	.
*	*	*Xtremolo	*	*	*	*	*	*	*
=142	=142	=142	=142	=142	=142	=142	=142	=142	=142
8F\L	.	1f	.	4.cc\	.	4.ee-\	.	1ryy	1ryy
8F\	.	.	.	.	.	.	.	.	.
8F\	.	.	.	.	.	.	.	.	.
8F\J	.	.	.	16dd\LL	.	16ff\LL	.	.	.
.	.	.	.	16cc\JJ	.	16ee-\JJ	.	.	.
8F\L	.	.	.	4b-\	.	4dd\	.	.	.
8F\	.	.	.	.	.	.	.	.	.
8F\	.	.	.	4a\	.	4ccT>\	.	.	.
8F\J	.	.	.	.	.	.	.	.	.
=143	=143	=143	=143	=143	=143	=143	=143	=143	=143
8B-\L	.	1f	.	8b-/	.	8dd\	.	1ryy	1ryy
8B-\	.	.	.	8r	.	8r	.	.	.
.	.	.	.	8qqcc/	.	16qqcc/	.	.	.
8B-\	.	.	.	16b-/LL	.	16b-/LL	.	.	.
.	.	.	.	16a/	.	16a/	.	.	.
8B-\J	.	.	.	16b-/	.	16b-/	.	.	.
.	.	.	.	16cc/JJ	.	16cc/JJ	.	.	.
8D/L	.	.	.	8dd\	.	8dd\	.	.	.
8D/	.	.	.	8r	.	8r	.	.	.
.	.	.	.	8qqcc/	.	.	.	.	.
8D/	.	.	.	16b-/LL	.	16b-/LL	.	.	.
.	.	.	.	16a/	.	16a/	.	.	.
8D/J	.	.	.	16b-/	.	16b-/	.	.	.
.	.	.	.	16cc/JJ	.	16cc/JJ	.	.	.
=144	=144	=144	=144	=144	=144	=144	=144	=144	=144
8E-\L	.	2g\	.	8dd\	.	8dd\	.	1ryy	1ryy
8E-\	.	.	.	8r	.	8r	.	.	.
.	.	.	.	8qqcc/	.	16qqcc/	.	.	.
8E-\	.	.	.	16b-/LL	.	16b-/LL	.	.	.
.	.	.	.	16a/	.	16a/	.	.	.
8E-\J	.	.	.	16b-/	.	16b-/	.	.	.
.	.	.	.	16cc/JJ	.	16cc/JJ	.	.	.
8F\L	.	2a\	.	8dd\	.	8dd\	.	.	.
8F\	.	.	.	8r	.	8r	.	.	.
.	.	.	.	8qqcc/	.	16qqcc/	.	.	.
8F\	.	.	.	16b-/LL	.	16b-/LL	.	.	.
.	.	.	.	16a/	.	16a/	.	.	.
8F\J	.	.	.	16b-/	.	16b-/	.	.	.
.	.	.	.	16cc/JJ	.	16cc/JJ	.	.	.
!	!	!	!	!	!	!LO:LB:g=original	!	!	!
=145	=145	=145	=145	=145	=145	=145	=145	=145	=145
8G\L	.	2b-\	.	8b-/L	.	8b-/L	.	1ryy	1ryy
8G\J	.	.	.	8b-/J	.	8b-/J	.	.	.
8E-\L	.	.	.	8gg\L	.	8gg\L	.	.	.
8E-\J	.	.	.	16ff\L	.	16ff\L	.	.	.
.	.	.	.	16ee-\JJ	.	16ee-\JJ	.	.	.
*Xtremolo	*	*	*	*	*	*	*	*	*
2F\	.	8b-\L	.	4dd\	.	4dd\	.	.	.
.	.	8b-\	.	.	.	.	.	.	.
.	.	8a\	.	4cc\	.	4ccT>\	.	.	.
.	.	8a\J	.	.	.	.	.	.	.
!	!	!	!	!LO:LB:g=original	!	!	!	!	!
=146	=146	=146	=146	=146	=146	=146	=146	=146	=146
!!mixed beam:problem
!LO:TX:t=P:problem=brakujący takt	!	!	!	!LO:TX:t=P:problem=mixed beam	!	!LO:TX:t=P:problem=mixed beam	!	!	!
1ryy	.	4b-\	.	8b-\L	.	8b-\L	.	1ryy	1ryy
.	.	.	.	8B-/	.	8d/	.	.	.
.	.	4r	.	8c/	.	8e-/	.	.	.
.	.	.	.	8d/J	.	8f/J	.	.	.
.	.	2r	.	8e-/L	.	8g/L	.	.	.
.	.	.	.	8f/	.	8a/	.	.	.
.	.	.	.	8g/	.	8b-/	.	.	.
.	.	.	.	8a/J	.	8cc/J	.	.	.
=147	=147	=147	=147	=147	=147	=147	=147	=147	=147
4BB-/	.	8r	.	8b-\L	.	8dd\	.	1ryy	1ryy
.	.	8b-\L	.	8dd\	.	8r	.	.	.
4r	.	8a\	.	8cc\	.	8ff\	.	.	.
.	.	8g\J	.	8b-\J	.	8r	.	.	.
2r	.	8f\L	.	8a/L	.	8ff\	.	.	.
.	.	8e-\	.	8g/	.	8r	.	.	.
.	.	8d\	.	8f/	.	8ff\	.	.	.
.	.	8c\J	.	8e-/J	.	8r	.	.	.
=148	=148	=148	=148	=148	=148	=148	=148	=148	=148
!!mixed beam:problem
!	!	!	!	!	!	!LO:TX:t=P:problem=mixed beam	!	!	!
8r	.	4B-/	.	8d/L	.	8bb-\L	.	1ryy	1ryy
8B-\L	.	.	.	8B-/	.	8d/	.	.	.
8A\	.	4r	.	8c/	.	8e-/	.	.	.
8G\J	.	.	.	8d/J	.	8f/J	.	.	.
8F\L	.	2r	.	8e-/L	.	8g/L	.	.	.
8E-\	.	.	.	8f/	.	8a/	.	.	.
8D\	.	.	.	8g/	.	8b-/	.	.	.
8C\J	.	.	.	8a/J	.	8cc/J	.	.	.
!LO:PB:g=original	!	!	!	!	!	!	!	!	!
=149	=149	=149	=149	=149	=149	=149	=149	=149	=149
4BB-/	.	8r	.	8b-\L	.	8dd\	.	1ryy	1ryy
.	.	8b-\L	.	8dd\	.	8r	.	.	.
4r	.	8a\	.	8cc\	.	8ff\	.	.	.
.	.	8g\J	.	8b-\J	.	8r	.	.	.
2r	.	8f\L	.	8a/L	.	8ff\	.	.	.
.	.	8e-\	.	8g/	.	8r	.	.	.
.	.	8d\	.	8f/	.	8ff\	.	.	.
.	.	8c\J	.	8e-/J	.	8r	.	.	.
=150	=150	=150	=150	=150	=150	=150	=150	=150	=150
*	*	*	*	*	*	*^	*	*	*
8r	.	8B-/L	.	4d/	.	4bb-/	4dd\	.	1ryy	1ryy
8B-\L	.	8B-/	.	.	.	.	.	.	.	.
8A\	.	8B-/	.	8B-/L	.	8B-/L	2.ryy	.	.	.
8G\J	.	8B-/J	.	8B-/J	.	8B-/J	.	.	.	.
8F\L	.	4B-/	.	4B-/	.	4B-/	.	.	.	.
8E-\	.	.	.	.	.	.	.	.	.	.
8D\	.	4r	.	4r	.	4r	.	.	.	.
8C\J	.	.	.	.	.	.	.	.	.	.
*	*	*	*	*	*	*v	*v	*	*	*
=151	=151	=151	=151	=151	=151	=151	=151	=151	=151
!	!	!LO:TX:t=P:problem=brak oznaczenia powtórzenia taktu	!	!LO:TX:t=P:problem=brakujący takt	!	!LO:TX:t=P:problem=brakujący takt	!	!	!
8BB-/L	.	8B-/Lyy	.	1ryy	.	1ryy	.	1ryy	1ryy
8BB-/	.	8B-/yy	.	.	.	.	.	.	.
8BB-/	.	8B-/yy	.	.	.	.	.	.	.
8BB-/J	.	8B-/Jyy	.	.	.	.	.	.	.
4BB-/	.	4B-/yy	.	.	.	.	.	.	.
4r	.	4ryy	.	.	.	.	.	.	.
==:|	==:|	==	==	==	==	==	==	==	==
*-	*-	*-	*-	*-	*-	*-	*-	*-	*-
!!!system-decoration: [(g1)][(g2)]
!!!RDF**kern: > = above
!!!RDF**kern: < = below
!!!ENC: Berenika Jozajtis
!!!END: 2021-02-08
!!!EED: Jędrzej Mróz
!!!EEV: 2022-01-10
!!!YEC: Copyright 2022 Narodowy Instytut Fryderyka Chopina (https://polishscores.org)
!!!YEM: Licence CC BY 4.0 (https://creativecommons.org/licenses/by/4.0)
